!!!!SEGMENT: pl-wtm--r-693-m--004_moniuszko-stanislaw--sonety-krymskie-ruina.krn
!!!cenid: 18xx:2935
!!!COM: Moniuszko, Stanisław
!!!COM-rismid: pe30008351
!!!CDT: 1819/05/05-1872/06/04
!!!CNT: Polish
!!!GTL: Sonety krymskie
!!!OTL: Ruina
!!!PDT:
!!!AGN: Secular; Sonnet
!!!SMS-siglum: PL-Wtm
!!!SMS-shelfmark: R 693/M
!!!SMS-shelfwork: 004 G
!!!SMS-variant:
!!!SMS-altvar:
!!!NIFC-rismid: 1001096152
!!!URL-scan: http://repozytorium.nifc.pl/skany/pl-wtm-nut--r693m
!!!ONB-nifc: UWAGA: zbiór zawiera: 1. Cisza morska, 2. Żegluga, 3. Burza, 4. Ruina, 5. Noc,
!!!OMD: Largo.
!!!AIN: 2 alto 2 empty 2 soprn 2 tenor
!!!key:
**kern	**text	**text	**kern	**text	**text	**text	**dynam	**kern	**text	**kern	**text	**text	**text	**dynam	**kern	**text	**text	**kern	**text	**text	**text	**dynam	**kern	**text	**text	**kern	**text	**text	**text	**dynam
*part8	*part8	*part8	*part7	*part7	*part7	*part7	*part7	*part6	*part6	*part5	*part5	*part5	*part5	*part5	*part4	*part4	*part4	*part3	*part3	*part3	*part3	*part3	*part2	*part2	*part2	*part1	*part1	*part1	*part1	*part1
*staff8	*staff8	*staff8	*staff7	*staff7	*staff7	*staff7	*	*staff6	*staff6	*staff5	*staff5	*staff5	*staff5	*	*staff4	*staff4	*staff4	*staff3	*staff3	*staff3	*staff3	*	*staff2	*staff2	*staff2	*staff1	*staff1	*staff1	*staff1	*
*Iempty	*	*	*Iempty	*	*	*	*	*Itenor	*	*Itenor	*	*	*	*	*Ialto	*	*	*Ialto	*	*	*	*	*Isoprn	*	*	*Isoprn	*	*	*	*
*I"[Bas]	*	*	*I"[Bas]	*	*	*	*	*I"[Tenor]	*	*I"[Tenor]	*	*	*	*	*I"[Alt]	*	*	*I"Alt.	*	*	*	*	*I"[Sopran]	*	*	*I"Sopr.	*	*	*	*
*clefF4	*	*	*clefF4	*	*	*	*	*clefG2	*	*clefG2	*	*	*	*	*clefG2	*	*	*clefG2	*	*	*	*	*clefG2	*	*	*clefG2	*	*	*	*
*	*	*	*	*	*	*	*	*ITrd8c12	*	*ITrd8c12	*	*	*	*	*	*	*	*	*	*	*	*	*	*	*	*	*	*	*	*
*k[b-e-a-d-]	*	*	*k[b-e-a-d-]	*	*	*	*	*k[b-e-a-d-]	*	*k[b-e-a-d-]	*	*	*	*	*k[b-e-a-d-]	*	*	*k[b-e-a-d-]	*	*	*	*	*k[b-e-a-d-]	*	*	*k[b-e-a-d-]	*	*	*	*
*f:	*	*	*f:	*	*	*	*	*f:	*	*f:	*	*	*	*	*f:	*	*	*f:	*	*	*	*	*f:	*	*	*f:	*	*	*	*
*M4/4	*	*	*M4/4	*	*	*	*	*M4/4	*	*M4/4	*	*	*	*	*M4/4	*	*	*M4/4	*	*	*	*	*M4/4	*	*	*M4/4	*	*	*	*
*met(c)	*	*	*met(c)	*	*	*	*	*met(c)	*	*met(c)	*	*	*	*	*met(c)	*	*	*met(c)	*	*	*	*	*met(c)	*	*	*met(c)	*	*	*	*
=1	=1	=1	=1	=1	=1	=1	=1	=1	=1	=1	=1	=1	=1	=1	=1	=1	=1	=1	=1	=1	=1	=1	=1	=1	=1	=1	=1	=1	=1	=1
!	!	!	!	!	!	!	!	!	!	!	!	!	!	!	!	!	!	!	!	!	!	!	!	!	!	!LO:TX:a:i:t=Bagtschi=Serai:color=darkblue	!	!	!	!
!	!	!	!	!	!	!	!	!	!	!	!	!	!	!	!	!	!	!	!	!	!	!	!	!	!	!LO:TX:a:i:t=(Ruine di) Bageisarai.:color=red	!	!	!	!
!LO:TX:t=P:problem=brak klucza i znaków	!	!	!	!	!	!	!	!LO:TX:t=P:problem=brak klucza i znaków	!	!	!	!	!	!	!LO:TX:t=P:problem=brak klucza i znaków	!	!	!	!	!	!	!	!LO:TX:t=P:problem=brak klucza i znaków	!	!	!LO:TX:a:t=Nº 5. Ruina.	!	!	!	!
1ryy	.	.	1ryy	.	.	.	.	1ryy	.	1ryy	.	.	.	.	1ryy	.	.	1r	.	.	.	.	1ryy	.	.	1r	.	.	.	.
=2	=2	=2	=2	=2	=2	=2	=2	=2	=2	=2	=2	=2	=2	=2	=2	=2	=2	=2	=2	=2	=2	=2	=2	=2	=2	=2	=2	=2	=2	=2
1ryy	.	.	1ryy	.	.	.	.	1ryy	.	1ryy	.	.	.	.	1ryy	.	.	1r	.	.	.	.	2r	.	.	2r	.	.	.	.
*	*	*	*	*	*	*	*	*	*	*	*	*	*	*	*	*	*	*	*	*	*	*	*	*	*color:darkblue	*	*	*color:red	*	*
!	!	!	!	!	!	!	!	!	!	!	!	!	!	!	!	!	!	!	!	!	!	!	!	!	!	!	!	!	!	!LO:DY:rj
.	.	.	.	.	.	.	.	.	.	.	.	.	.	.	.	.	.	.	.	.	.	.	4cc\	.	Noch	4.cc^\	Je-	Dei	.	p
.	.	.	.	.	.	.	.	.	.	.	.	.	.	.	.	.	.	.	.	.	.	.	8cc\	.	steht	.	.	.	.	.
.	.	.	.	.	.	.	.	.	.	.	.	.	.	.	.	.	.	.	.	.	.	.	8a-/	.	die	8a-/	-szcze	sul-	.	.
=3	=3	=3	=3	=3	=3	=3	=3	=3	=3	=3	=3	=3	=3	=3	=3	=3	=3	=3	=3	=3	=3	=3	=3	=3	=3	=3	=3	=3	=3	=3
1ryy	.	.	1ryy	.	.	.	.	1ryy	.	1ryy	.	.	.	.	1ryy	.	.	1r	.	.	.	.	[4f/	.	Burg	4f/	wiel-	-ta-	.	.
.	.	.	.	.	.	.	.	.	.	.	.	.	.	.	.	.	.	.	.	.	.	.	8f/]	.	.	8f/	-ka	-ni	.	.
.	.	.	.	.	.	.	.	.	.	.	.	.	.	.	.	.	.	.	.	.	.	.	16r	.	.	16r	.	.	.	.
.	.	.	.	.	.	.	.	.	.	.	.	.	.	.	.	.	.	.	.	.	.	.	16f/	.	der	16f/	już	la	.	.
.	.	.	.	.	.	.	.	.	.	.	.	.	.	.	.	.	.	.	.	.	.	.	4f/	.	Kha-	4f/	pu-	reg-	.	.
.	.	.	.	.	.	.	.	.	.	.	.	.	.	.	.	.	.	.	.	.	.	.	8f/	.	-ne	8f/	-sta	-gia	.	.
.	.	.	.	.	.	.	.	.	.	.	.	.	.	.	.	.	.	.	.	.	.	.	16r	.	.	16r	.	.	.	.
.	.	.	.	.	.	.	.	.	.	.	.	.	.	.	.	.	.	.	.	.	.	.	16f/	.	ge-	16f/	Gi-	do-	.	.
=4	=4	=4	=4	=4	=4	=4	=4	=4	=4	=4	=4	=4	=4	=4	=4	=4	=4	=4	=4	=4	=4	=4	=4	=4	=4	=4	=4	=4	=4	=4
1ryy	.	.	1ryy	.	.	.	.	1ryy	.	1ryy	.	.	.	.	1ryy	.	.	2r	.	.	.	.	8g/	.	-wal-	4g/	-ra-	-ra-	.	.
.	.	.	.	.	.	.	.	.	.	.	.	.	.	.	.	.	.	.	.	.	.	.	8g/	.	-tig	.	.	.	.	.
.	.	.	.	.	.	.	.	.	.	.	.	.	.	.	.	.	.	.	.	.	.	.	8.f/	.	doch	8.f/	-jów	-ta è	.	.
.	.	.	.	.	.	.	.	.	.	.	.	.	.	.	.	.	.	.	.	.	.	.	16g/	.	ver-	16g/	dzie-	de-	.	.
.	.	.	.	.	.	.	.	.	.	.	.	.	.	.	.	.	.	4r	.	.	.	.	4a-/	.	-fal-	4a-/	-dzi-	-ser-	.	.
.	.	.	.	.	.	.	.	.	.	.	.	.	.	.	.	.	.	8r	.	.	.	.	8a-/	.	-len!	8a-,/	-na	-ta	.	.
*	*	*	*	*	*	*	*	*	*	*	*	*	*	*	*	*	*	*	*	*color:red	*color:darkblue	*	*	*	*	*	*	*	*	*
.	.	.	.	.	.	.	.	.	.	.	.	.	.	.	.	.	.	8a-/	Zmia	Per	Die	.	8a-/	.	Die	8a-/	Zmia-	Per	.	.
!!LO:LB:g=original
=5	=5	=5	=5	=5	=5	=5	=5	=5	=5	=5	=5	=5	=5	=5	=5	=5	=5	=5	=5	=5	=5	=5	=5	=5	=5	=5	=5	=5	=5	=5
*	*	*	*	*	*	*	*	*	*	*	*	*	*	*	*	*	*color:darkblue	*	*	*	*	*	*	*	*	*	*	*	*	*
1ryy	.	.	1ryy	.	.	.	.	1ryy	.	1ryy	.	.	.	.	8.a-/	.	Heu-	8.a-/	-ta-	le	.	.	8.b-\	.	Heu-	8.b-\	-ta-	le	.	.
.	.	.	.	.	.	.	.	.	.	.	.	.	.	.	16a-/	.	-schreck'	16a-/	-ne	si-	.	.	16b-\	.	-schreck'	16b-\	-ne	si-	.	.
.	.	.	.	.	.	.	.	.	.	.	.	.	.	.	8g/	.	hüpft,	8g/	czo-	-len-	.	.	8b-\	.	hüpft,	8b-\	czo-	-len-	.	.
.	.	.	.	.	.	.	.	.	.	.	.	.	.	.	16f/LL	.	wo	16f/LL	-łem	-ti	.	.	16a-/LL	.	wo	16a-/LL	-łem	-ti	.	.
.	.	.	.	.	.	.	.	.	.	.	.	.	.	.	16g/JJ	.	.	16g/JJ	.	.	.	.	16b-/JJ	.	.	16b-/JJ	.	.	.	.
.	.	.	.	.	.	.	.	.	.	.	.	.	.	.	4a-/	.	Knie-	4.a-/	Ba-	vol-	.	.	4cc\	.	Knie-	4.cc\	Ba-	vol-	.	.
.	.	.	.	.	.	.	.	.	.	.	.	.	.	.	8a-/	.	-end	.	.	.	.	.	8cc\	.	-end	.	.	.	.	.
.	.	.	.	.	.	.	.	.	.	.	.	.	.	.	8a-/	.	im	8a-/	-szów	-te	.	.	16cc\LL	.	im	16cc\LL	-szów	-te	.	.
.	.	.	.	.	.	.	.	.	.	.	.	.	.	.	.	.	.	.	.	.	.	.	16ddn\JJ	.	.	16ddn\JJ	.	.	.	.
=6	=6	=6	=6	=6	=6	=6	=6	=6	=6	=6	=6	=6	=6	=6	=6	=6	=6	=6	=6	=6	=6	=6	=6	=6	=6	=6	=6	=6	=6	=6
1ryy	.	.	1ryy	.	.	.	.	1ryy	.	1ryy	.	.	.	.	1ryy	.	.	8g/	gan-	sal-	Staub	.	8ee-\	.	Staub	8ee-\	gan-	sal-	.	.
.	.	.	.	.	.	.	.	.	.	.	.	.	.	.	.	.	.	8f/	-ki	-ta	die	.	8ddn\	.	die	8ddn\	-ki	-ta	.	.
.	.	.	.	.	.	.	.	.	.	.	.	.	.	.	.	.	.	8e-/	i	la	Pa-	.	8cc\	.	Pa-	8cc\	i	la	.	.
.	.	.	.	.	.	.	.	.	.	.	.	.	.	.	.	.	.	8dn/	przed-	lu-	-shas	.	8bn\	.	-schas	8bn\	przed-	lu-	.	.
.	.	.	.	.	.	.	.	.	.	.	.	.	.	.	.	.	.	4.c/	-sie-	-cer-	la-	.	4cc\	.	la-	8.cc\	-sie-	-cer-	.	.
.	.	.	.	.	.	.	.	.	.	.	.	.	.	.	.	.	.	.	.	.	.	.	.	.	.	16cc\	-nia	-ta	.	.
.	.	.	.	.	.	.	.	.	.	.	.	.	.	.	.	.	.	.	.	.	.	.	8.ee-\	.	-gen;	8.ee-\	So-	Le	.	.
!	!	!	!	!	!	!	!	!	!	!	!	!	!	!	!	!	!	!LO:N:vis=8	!	!	!	!	!	!	!	!	!	!	!	!
.	.	.	.	.	.	.	.	.	.	.	.	.	.	.	.	.	.	16c/	-nia	-ta	-gen;	.	.	.	.	.	.	.	.	.
!	!	!	!	!	!	!	!	!	!	!	!	!	!	!	!	!	!	!LO:N:vis=8	!	!	!	!	!	!	!	!	!	!	!	!
.	.	.	.	.	.	.	.	.	.	.	.	.	.	.	.	.	.	16r	.	.	.	.	16cc\	.	Ver	16cc\	-fy	Reg-	.	.
!!LO:LB:g=original
=7	=7	=7	=7	=7	=7	=7	=7	=7	=7	=7	=7	=7	=7	=7	=7	=7	=7	=7	=7	=7	=7	=7	=7	=7	=7	=7	=7	=7	=7	=7
1ryy	.	.	1ryy	.	.	.	.	1ryy	.	1ryy	.	.	.	.	2ryy	.	.	2r	.	.	.	.	8a-/	.	hallt	4a-/	tro-	-gia-	.	.
.	.	.	.	.	.	.	.	.	.	.	.	.	.	.	.	.	.	.	.	.	.	.	8a-/	.	die	.	.	.	.	.
.	.	.	.	.	.	.	.	.	.	.	.	.	.	.	.	.	.	.	.	.	.	.	8.a-/	.	Herr-	8.a-/	-ny	-dre	.	.
.	.	.	.	.	.	.	.	.	.	.	.	.	.	.	.	.	.	.	.	.	.	.	16a-/	.	-scher-	16a-/	po-	ve-	.	.
.	.	.	.	.	.	.	.	.	.	.	.	.	.	.	4ryy	.	.	4r	.	.	.	.	4a-/	.	-wor-	4a-/	-tę-	-ran-	.	.
.	.	.	.	.	.	.	.	.	.	.	.	.	.	.	8ryy	.	.	8r	.	.	.	.	8a-/	.	-te,	8a-/	-gi	-de	.	.
*	*	*	*	*	*	*	*	*	*	*	*	*	*	*	*	*color:darkblue	*	*	*	*	*	*	*	*	*	*	*	*	*	*
.	.	.	.	.	.	.	.	.	.	.	.	.	.	.	8a-/	ver-	.	8a-/	mi-	.	.	.	8a-/	.	ver-	8a-/	mi-	la	.	.
=8	=8	=8	=8	=8	=8	=8	=8	=8	=8	=8	=8	=8	=8	=8	=8	=8	=8	=8	=8	=8	=8	=8	=8	=8	=8	=8	=8	=8	=8	=8
1ryy	.	.	1ryy	.	.	.	.	1ryy	.	1ryy	.	.	.	.	8f/	-stummt	.	4f/	-ło-	.	.	.	8dd-\	.	-stummt	4dd-\	-ło-	vi-	.	.
.	.	.	.	.	.	.	.	.	.	.	.	.	.	.	8f/	die	.	.	.	.	.	.	8dd-\	.	die	.	.	.	.	.
.	.	.	.	.	.	.	.	.	.	.	.	.	.	.	8a-/	Lie-	.	8a-/	-ści	.	.	.	8cc\	.	Lie-	8cc\	-ści	-pe-	.	.
.	.	.	.	.	.	.	.	.	.	.	.	.	.	.	8g/	-bes-	.	8g/	schro-	.	.	.	8b-\	.	-bes-	8b-\	schro-	-ra as	.	.
.	.	.	.	.	.	.	.	.	.	.	.	.	.	.	4a-/	-kla-	.	4a-/	-nie-	.	.	.	4cc\	.	-kla-	4cc\	-nie-	con-	.	.
.	.	.	.	.	.	.	.	.	.	.	.	.	.	.	8..a-/	-gen,	.	8a-/	-nia,	.	.	.	8..cc\	.	-gen.	8cc,\	-nia,	-de	.	.
.	.	.	.	.	.	.	.	.	.	.	.	.	.	.	.	.	.	16.a-/	prze-	.	.	.	.	.	.	16.cc\	prze-	Ob-	.	.
.	.	.	.	.	.	.	.	.	.	.	.	.	.	.	32e-/	und	.	32e-/	-ska-	.	.	.	32ee-\	.	und	32ee-\	-ska-	-bli-	.	.
!!LO:LB:g=original
=9	=9	=9	=9	=9	=9	=9	=9	=9	=9	=9	=9	=9	=9	=9	=9	=9	=9	=9	=9	=9	=9	=9	=9	=9	=9	=9	=9	=9	=9	=9
1ryy	.	.	1ryy	.	.	.	.	1ryy	.	1ryy	.	.	.	.	8g/	gift-	.	4g/	-ku-	.	.	.	8ee-\	.	gift-	4ee-\	-ku-	-a-	.	.
.	.	.	.	.	.	.	.	.	.	.	.	.	.	.	8g/	-'ge	.	.	.	.	.	.	8ee-\	.	-'ge	.	.	.	.	.
.	.	.	.	.	.	.	.	.	.	.	.	.	.	.	8g/	Schlan-	.	8g/	-je	.	.	.	8b-\	.	Schlan-	8b-\	-je	-te	.	.
.	.	.	.	.	.	.	.	.	.	.	.	.	.	.	8e-/	-gen	.	8e-/	sza-	.	.	.	8cc\	.	-gen	8cc\	sza-	or	.	.
.	.	.	.	.	.	.	.	.	.	.	.	.	.	.	8c/	schlei-	.	4c/	-rań-	.	.	.	8a-/	.	schlei-	4a-/	-rań-	so-	.	.
.	.	.	.	.	.	.	.	.	.	.	.	.	.	.	8c/	-chen	.	.	.	.	.	.	8a-/	.	-chen	.	.	.	.	.
.	.	.	.	.	.	.	.	.	.	.	.	.	.	.	8f/	in	.	8f/	-cza	.	.	.	8a-/	.	in	8a-/	-cza	-no	.	.
.	.	.	.	.	.	.	.	.	.	.	.	.	.	.	16f/	den	.	8f/	ob-	.	.	.	16a-/	.	den	8a-/	ob-	le	.	.
.	.	.	.	.	.	.	.	.	.	.	.	.	.	.	16f/	ver-	.	.	.	.	.	.	16a-/	.	ver-	.	.	.	.	.
=10	=10	=10	=10	=10	=10	=10	=10	=10	=10	=10	=10	=10	=10	=10	=10	=10	=10	=10	=10	=10	=10	=10	=10	=10	=10	=10	=10	=10	=10	=10
!	!	!	!	!	!	!	!	!	!	!	!	!	!	!	!LO:S:color=darkblue	!	!	!	!	!	!	!	!LO:S:color=darkblue	!	!	!	!	!	!	!
1ryy	.	.	1ryy	.	.	.	.	1ryy	.	1ryy	.	.	.	.	(4c/	-lass'-	.	4c/	-wi-	.	.	.	(<4cc\	.	-lass-	4cc\	-wi-	vi-	.	.
.	.	.	.	.	.	.	.	.	.	.	.	.	.	.	8.B-/)	.	.	8.B-/	-ja	.	.	.	8.g/)	.	.	8.g/	-ja	-sa	.	.
.	.	.	.	.	.	.	.	.	.	.	.	.	.	.	16c/	-nen	.	16c/	ga-	.	.	.	16a-/	.	-nen	16a-/	ga-	gio-	.	.
.	.	.	.	.	.	.	.	.	.	.	.	.	.	.	4A-/	Hal-	.	4A-/	-dzi-	.	.	.	4f/	.	Hal-	4f/	-dzi-	-con-	.	.
.	.	.	.	.	.	.	.	.	.	.	.	.	.	.	8A-/	-len.	.	8A-/	-na	.	.	.	8f/	.	-len.	8f/	-na	-de	.	.
.	.	.	.	.	.	.	.	.	.	.	.	.	.	.	8r	.	.	8r	.	.	.	.	8r	.	.	8r	.	.	.	.
!!LO:PB:g=original
=11	=11	=11	=11	=11	=11	=11	=11	=11	=11	=11	=11	=11	=11	=11	=11	=11	=11	=11	=11	=11	=11	=11	=11	=11	=11	=11	=11	=11	=11	=11
1ryy	.	.	2r	.	.	.	.	1ryy	.	2r	.	.	.	.	1ryy	.	.	2r	.	.	.	.	1ryy	.	.	2r	.	.	.	.
.	.	.	4r	.	.	.	.	.	.	4r	.	.	.	.	.	.	.	4r	.	.	.	.	.	.	.	4r	.	.	.	.
!	!	!	!	!	!	!	!	!	!	!	!	!	!	!LO:DY:a	!	!	!	!	!	!	!	!LO:DY:a	!	!	!	!	!	!	!	!LO:DY:a
.	.	.	8r	.	.	.	.	.	.	8r	.	.	.	pp	.	.	.	8r	.	.	.	pp	.	.	.	8r	.	.	.	pp
*	*	*	*	*	*color:red	*color:darkblue	*	*	*	*	*	*	*	*	*	*	*	*	*	*	*	*	*	*	*	*	*	*	*	*
.	.	.	16.A-\LL	Skróś	e	Durch	.	.	.	16.c\LL	Skróś	.	.	.	.	.	.	16.a-/LL	Skróś	.	Durch	.	.	.	.	16.cc\LL	Skróś	e	.	.
.	.	.	32B-\JJk	.	.	.	.	.	.	32d-\JJk	.	.	.	.	.	.	.	32b-/JJk	.	.	.	.	.	.	.	32dd-\JJk	.	.	.	.
=12	=12	=12	=12	=12	=12	=12	=12	=12	=12	=12	=12	=12	=12	=12	=12	=12	=12	=12	=12	=12	=12	=12	=12	=12	=12	=12	=12	=12	=12	=12
1ryy	.	.	8A-\	o-	e'i-	bun-	.	1ryy	.	8c\	o-	.	.	.	1ryy	.	.	8a-/	o-	.	bun-	.	1ryy	.	.	8cc\	o-	l'e	.	.
.	.	.	8G\	-kien	-do-	-te	.	.	.	8B-\	-kien	.	.	.	.	.	.	8g/	-kien	.	-te	.	.	.	.	8b-\	-kien	de-	.	.
.	.	.	8F\	róż-	-ra	Fen-	.	.	.	8A-/	róż-	.	.	.	.	.	.	8f/	róż-	.	Fen-	.	.	.	.	8a-/	róż-	-ra-	.	.
.	.	.	8G\	-no-	mal-	-ster	.	.	.	8B-\	-no-	.	.	.	.	.	.	8g/	-no-	.	-ster	.	.	.	.	8b-\	-no-	-mae	.	.
.	.	.	4A-\	-farb-	-veg-	drin-	.	.	.	4c\	-farb-	.	.	.	.	.	.	4a-/	-farb-	.	drin-	.	.	.	.	4cc\	-farb-	veg-	.	.
.	.	.	8F\	-nych	-gia	-gend,	.	.	.	8F/	-nych	.	.	.	.	.	.	8f/	-nych	.	-gend,	.	.	.	.	8f/	-nych	-gia	.	.
!	!	!	!	!	!	!	!	!	!	!	!	!	!	!LO:DY:a	!	!	!	!	!	!	!	!	!	!	!	!	!	!	!	!
.	.	.	16F\LL	po-	cam-	ist	ff	.	.	16A-/LL	po-	.	.	ff	.	.	.	8r	.	.	.	.	.	.	.	8r	.	.	.	.
.	.	.	16A-\JJ	.	.	.	.	.	.	16c/JJ	.	.	.	.	.	.	.	.	.	.	.	.	.	.	.	.	.	.	.	.
=13	=13	=13	=13	=13	=13	=13	=13	=13	=13	=13	=13	=13	=13	=13	=13	=13	=13	=13	=13	=13	=13	=13	=13	=13	=13	=13	=13	=13	=13	=13
1ryy	.	.	[2.A-\	-wo-	-mi-	längst	.	1ryy	.	[2.c\	-wo-	.	.	.	4r	.	.	4r	.	.	.	.	4r	.	.	4r	.	.	.	.
.	.	.	.	.	.	.	.	.	.	.	.	.	.	.	8r	.	.	8r	.	.	.	.	8r	.	.	8r	.	.	.	.
*	*	*	*	*	*	*	*	*	*	*	*	*	*	*	*	*	*	*	*	*	*	*	*	*above	*	*	*	*	*	*
*	*	*	*	*	*	*	*	*	*	*	*	*	*	*	*	*	*	*	*	*	*	*	*	*color:red	*	*	*	*	*	*
!	!	!	!	!	!	!	!	!	!	!	!	!	!	!	!	!	!	!	!	!	!	!LO:DY:rj	!	!	!	!	!	!	!	!LO:DY:a
.	.	.	.	.	.	.	.	.	.	.	.	.	.	.	16.f/LL	ist	.	16.f/LL	po	.	.	p	16.a-\LL	.	dis-	16.a-\LL	po	.	.	p
.	.	.	.	.	.	.	.	.	.	.	.	.	.	.	32a-/JJk	.	.	32a-/JJk	.	.	.	.	32cc\JJk	.	.	32cc\JJk	.	.	.	.
.	.	.	.	.	.	.	.	.	.	.	.	.	.	.	4a-/	längst	.	4.a-/	wo-	.	.	.	4cc\	.	-trug-	4.cc\	wo-	.	.	.
.	.	.	8A-\]	.	.	im	.	.	.	8c\]	.	.	.	.	8a-/	im	.	.	.	.	.	.	8cc\	.	-gen-	.	.	.	.	.
.	.	.	16.F\	-ju	-na,	Schloss	.	.	.	16.c\	-ju	.	.	.	16.f/	Schloss	.	16.f/	-ju	.	.	.	16.a-/	.	-te	16.a-/	-ju	.	.	.
.	.	.	32F\	ro-	cam-	er	.	.	.	32d-\	ro-	.	.	.	32g/	er	.	32g/	ro-	.	.	.	32b-/	.	cam	32b-/	ro-	.	.	.
!!LO:LB:g=original
=14	=14	=14	=14	=14	=14	=14	=14	=14	=14	=14	=14	=14	=14	=14	=14	=14	=14	=14	=14	=14	=14	=14	=14	=14	=14	=14	=14	=14	=14	=14
*M2/4	*	*	*M2/4	*	*	*	*	*M2/4	*	*M2/4	*	*	*	*	*M2/4	*	*	*M2/4	*	*	*	*	*M2/4	*	*	*M2/4	*	*	*	*
2ryy	.	.	8F\L	-śli-	-mi-	schie-	.	2ryy	.	8c\L	-śli-	.	.	.	2ryy	.	.	8f/L	-śli-	.	schie-	.	2r	.	.	8a-/L	-śli-	mi-	.	.
.	.	.	8BB-\J	.	.	.	.	.	.	8B-\J	.	.	.	.	.	.	.	8d-X/J	.	.	.	.	.	.	.	8g-X/J	.	.	.	.
.	.	.	8C/	-na	-na,	-nen	.	.	.	8A-/	-na	.	.	.	.	.	.	8c/	-na	.	-nen	.	.	.	.	8f/	-na	-na	.	.
.	.	.	8C/	wdzie-	e	Ein	.	.	.	8G/	wdzie-	.	.	.	.	.	.	8B-/	wdzie-	.	Ein	.	.	.	.	8en/	zaj-	e	.	.
=15	=15	=15	=15	=15	=15	=15	=15	=15	=15	=15	=15	=15	=15	=15	=15	=15	=15	=15	=15	=15	=15	=15	=15	=15	=15	=15	=15	=15	=15	=15
*M4/4	*	*	*M4/4	*	*	*	*	*M4/4	*	*M4/4	*	*	*	*	*M4/4	*	*	*M4/4	*	*	*	*	*M4/4	*	*	*M4/4	*	*	*	*
*met(c)	*	*	*met(c)	*	*	*	*	*met(c)	*	*met(c)	*	*	*	*	*met(c)	*	*	*met(c)	*	*	*	*	*met(c)	*	*	*met(c)	*	*	*	*
*	*	*color:darkblue	*	*	*	*	*	*	*	*	*	*	*	*	*	*	*	*	*	*	*	*	*	*	*	*	*	*	*	*
8.D-\	.	frem-	8.D-\	-ra-	l'e-	.	.	8.F/	.	8.F/	-ra-	.	.	.	8.A-/	frem	.	8.A-/	-ra-	.	.	.	8.f/	.	.	8.f/	-mu-	l'e-	.	.
.	.	.	.	.	.	.	.	.	.	.	.	.	.	.	.	.	.	.	.	.	.	<	.	.	.	.	.	.	.	<
16D-\	.	-der	16D-\	-jąc	-de-	.	.	16A-/	.	16A-/	-jąc	.	.	.	16d-/	der	.	16d-/	-jąc	.	.	.	16f/	.	.	16f/	-je	-de-	.	.
8.D-\	.	Gast:	8.D-\	się	-ra	.	.	8.A-/	.	8.A-/	się	.	.	.	8.c/	Gast:	.	8.c/	się	.	.	.	8.a-/	.	.	8.a-/	dzie-	-ra	.	.
.	.	.	.	.	.	.	.	.	.	.	.	.	.	.	.	.	.	.	.	.	.	[	.	.	.	.	.	.	.	.
16D-\	.	der	16D-\	na	si	.	.	16A-/	.	16A-/	na	.	.	.	16g-X/	der	.	16g-X/	na	.	.	.	16a-/	.	.	16a-/	-ło	si	.	[
4D-\	.	E-	4.D-\	głu-	sten-	.	.	4A-/	.	4.A-/	głu-	.	.	.	4f/	E-	.	4.f/	głu-	.	.	.	4dd-\	.	.	4.dd-\	lu-	sten-	.	.
8D-\	.	-phen,	.	.	.	.	.	8A-/	.	.	.	.	.	.	8f/	-phen	.	.	.	.	.	.	8dd-\	.	.	.	.	.	.	.
8D-\	.	er	8D-\	-che	-de	.	.	8A-/	.	8A-/	-che	.	.	.	8f/	er	.	8f/	-che	.	.	.	8dd-\	.	.	8dd-\	-dzi	-de	.	.
!!LO:PB:g=original
=16	=16	=16	=16	=16	=16	=16	=16	=16	=16	=16	=16	=16	=16	=16	=16	=16	=16	=16	=16	=16	=16	=16	=16	=16	=16	=16	=16	=16	=16	=16
*	*	*	*	*	*	*	*	*	*	*	*	*	*color:darkblue	*	*	*	*	*	*	*	*	*	*	*	*	*	*	*	*	*
1ryy	.	.	8D-\	ścia-	mal-	klimmt	.	1ryy	.	8A-/	ścia-	.	klimmt	.	1ryy	.	.	8e-/	ścia-	.	klimmt	.	1ryy	.	.	8dd-\	.	mal-	.	.
.	.	.	8D-\	-ny	-vag-	die	.	.	.	8A-/	-ny	.	di	.	.	.	.	8e-/	-ny	.	die	.	.	.	.	8cc\	.	-vag-	.	.
.	.	.	8D-\	i	-gia	ho-	.	.	.	8A-/	i	.	ho-	.	.	.	.	8e-/	i	.	ho-	.	.	.	.	8b-\	.	-gia	.	.
.	.	.	8D-\	skle-	cam-	-he	.	.	.	8A-/	skle-	.	-he	.	.	.	.	8e-/	skle-	.	-he	.	.	.	.	8cc\	.	cam-	.	.
.	.	.	4D-\	-pie-	-mi-	Mau-	.	.	.	4A-/	-pie-	.	Mau-	.	.	.	.	4f/	-pie-	.	Mau-	.	.	.	.	4dd-\	.	-mi-	.	.
.	.	.	8D-\	-nia	-na	-er.	.	.	.	8A-/	-nia	.	-er	.	.	.	.	8f/	-nia	.	-er.	.	.	.	.	8a-/	.	-na	.	.
!	!	!	!	!	!	!	!	!	!	!	!	!	!	!LO:DY:rj	!	!	!	!	!	!	!	!	!	!	!	!	!	!	!	!
.	.	.	8D-\	zaj-	cam-	Hi-	.	.	.	8A-/	zaj-	.	Hi	pp	.	.	.	8r	.	.	.	.	.	.	.	8r	.	.	.	.
=17	=17	=17	=17	=17	=17	=17	=17	=17	=17	=17	=17	=17	=17	=17	=17	=17	=17	=17	=17	=17	=17	=17	=17	=17	=17	=17	=17	=17	=17	=17
*M2/4	*	*	*M2/4	*	*	*	*	*M2/4	*color:darkblue	*M2/4	*	*	*	*	*M2/4	*	*	*M2/4	*	*	*	*	*M2/4	*	*	*M2/4	*	*	*	*
2ryy	.	.	[4D-\	-mu-	-mi-	-nan	.	[2A-/	nan,	[2A-/	-mu-	.	.	.	2ryy	.	.	4r	.	.	.	.	2ryy	.	.	4r	.	.	.	.
.	.	.	8D-\]	-je	-na	.	.	.	.	.	.	.	.	.	.	.	.	8r	.	.	.	.	.	.	.	8r	.	.	.	.
!	!	!	!	!	!	!	!	!	!	!	!	!	!	!	!	!	!	!	!	!	!	!	!	!	!	!LO:ACC:color=grey	!	!	!	!
.	.	.	8D-\	zaj-	E	hi	.	.	.	.	.	.	.	.	.	.	.	8c/	zaj-	.	Hi	.	.	.	.	8g-X/	zaj-	e	.	.
=18	=18	=18	=18	=18	=18	=18	=18	=18	=18	=18	=18	=18	=18	=18	=18	=18	=18	=18	=18	=18	=18	=18	=18	=18	=18	=18	=18	=18	=18	=18
*M4/4	*	*	*M4/4	*	*	*	*	*M4/4	*	*M4/4	*	*	*	*	*M4/4	*	*	*M4/4	*	*	*	*	*M4/4	*	*	*M4/4	*	*	*	*
*met(c)	*	*	*met(c)	*	*	*	*	*met(c)	*	*met(c)	*	*	*	*	*met(c)	*	*	*met(c)	*	*	*	*	*met(c)	*	*	*met(c)	*	*	*	*
!	!	!	!	!	!	!	!	!	!	!	!	!	!	!	!	!	!	!	!	!	!	!	!	!	!	!LO:TX:a:B:t=A:color=red	!	!	!	!
8.D-\	.	nan,	8.D-\	-mu-	l'e-	.	.	8.A-/]	.	8.A-/]	.	.	.	.	8.d-/	-nan,	.	8.d-/	-mu-	.	.	.	8.f/	.	.	8.f/	-mu-	l'e-	.	<
16D-\	.	um	16D-\	-je	-de-	.	.	16A-/	um	16A-/	-je	.	.	.	16d-/	um	.	16d-/	-je	.	.	.	16f/	.	.	16f/	-je	-de-	.	.
8.D-\	.	drauf	8.D-\	dzie-	-ra	.	.	8.A-/	drauf	8.A-/	dzie-	.	.	.	8.c/	drauf	.	8.c/	dzie-	.	.	.	8.a-/	.	.	8.a-/	dzie-	-ra	.	.
*	*	*	*	*	*ij	*	*	*	*	*	*	*	*	*	*	*	*	*	*	*	*	*	*	*	*	*	*	*	*	*
16D-\	.	zu	16D-\	-ło	l'e-	.	.	16A-/	zu	16A-/	-ło	.	.	.	16c/	zu	.	16c/	-ło	.	.	.	16a-/	.	.	16a-/	-ło	Si	.	[
!	!	!	!	!	!	!	!	!	!	!	!	!	!	!	!	!	!	!	!	!	!	!	!	!	!	!	!	!	!	!LO:DY:rj
4D-\	.	schrei-	4.D-\	lu-	-de-	.	.	4A-/	schrei-	4.A-/	lu-	.	.	.	4d-/	schrei-	.	4.d-/	lu-	.	.	.	4ff\	.	.	4.ff\	lu-	Sten-	.	f
8D-\	.	-ben,	.	.	.	.	.	8A-/	-ben,	.	.	.	.	.	8d-/	-ben	.	.	.	.	.	.	8ff\	.	.	.	.	.	.	.
8D-\	.	ver	8D-\	-dzi	-ra	.	.	8d-\	ver	8d-\	-dzi	.	.	.	16e-/LL	ver	.	16e-/LL	-dzi	.	.	.	16ee-\LL	.	.	16ee-\LL	-dzi	-de	.	.
*	*	*	*	*	*Xij	*	*	*	*	*	*	*	*	*	*	*	*	*	*	*	*	*	*	*	*	*	*	*	*	*
.	.	.	.	.	.	.	.	.	.	.	.	.	.	.	16f/JJ	.	.	16f/JJ	.	.	.	.	16dd-\JJ	.	.	16dd-\JJ	.	.	.	.
!!LO:LB:g=original
=19	=19	=19	=19	=19	=19	=19	=19	=19	=19	=19	=19	=19	=19	=19	=19	=19	=19	=19	=19	=19	=19	=19	=19	=19	=19	=19	=19	=19	=19	=19
*	*	*	*	*	*	*	*	*	*	*	*	*	*	*	*	*	*	*	*	*	*	*	*	*	*	*	*	*	*color:darkblue	*
1ryy	.	.	8A-\	w i-	.	.	.	1ryy	.	8e-\	w i-	.	kün-	.	1ryy	.	.	8g/	w i-	.	.	.	1ryy	.	.	8dd-\	w i-	mal-	kün-	.
.	.	.	8A-\	-mie	.	.	.	.	.	8e-\	-mie	.	-dend	.	.	.	.	8g/	-mie	.	.	.	.	.	.	8cc\	-mie	-vag-	-dend	.
.	.	.	8A-\	przy-	.	.	.	.	.	8e-\	przy-	.	To-	.	.	.	.	8g/	przy-	.	.	.	.	.	.	8b-\	przy-	-gia	To-	.
.	.	.	8A-\	-ro-	.	.	.	.	.	8e-\	-ro-	.	-des	.	.	.	.	8g/	-ro-	.	.	.	.	.	.	8cc\	-ro-	cam-	-des	.
.	.	.	4D-\	-dze-	.	.	.	.	.	4d-\	-dze-	.	schau-	.	.	.	.	4f/	-dze-	.	.	.	.	.	.	4dd-\	-dze-	-mi-	schan-	.
.	.	.	16D-\	-nia	.	.	.	.	.	16d-\	-nia	.	-er,	.	.	.	.	16f/	-nia	.	.	.	.	.	.	16a-/	-nia	-na	-er,	.
.	.	.	16r	.	.	.	.	.	.	16r	.	.	.	.	.	.	.	16r	.	.	.	.	.	.	.	16r	.	.	.	.
.	.	.	8F\	i	.	.	.	.	.	8F/	i	.	Wie	.	.	.	.	8f/	i	.	.	.	.	.	.	8f/	i	E	Wie	.
=20	=20	=20	=20	=20	=20	=20	=20	=20	=20	=20	=20	=20	=20	=20	=20	=20	=20	=20	=20	=20	=20	=20	=20	=20	=20	=20	=20	=20	=20	=20
1ryy	.	.	8.F\	pi-	.	.	.	1ryy	.	8.F/	pi-	.	einst	.	1ryy	.	.	8.f/	pi-	.	.	.	1ryy	.	.	8.f/	pi-	seri	einst	.
.	.	.	16F\	-sze	.	.	.	.	.	16F/	-sze	.	die	.	.	.	.	16f/	-sze	.	.	.	.	.	.	16f/	-sze	ve com	die	.
.	.	.	8F\	Bal-	.	.	.	.	.	8F/	Bal-	.	Gei-	.	.	.	.	8f/	Bal-	.	.	.	.	.	.	8f/	Bal-	al	Gei-	.
.	.	.	8F\	-ta-	.	.	.	.	.	8F/	-ta-	.	-ster	.	.	.	.	8f/	-ta-	.	.	.	.	.	.	8f/	-ta-	fes-	-ster	.
.	.	.	4A-\	-za-	.	.	.	.	.	4A-/	-za-	.	fin-	.	.	.	.	4a-/	-za-	.	.	.	.	.	.	4a-/	-za-	-tin	fin-	.
.	.	.	8A-\	-ra	.	.	.	.	.	8A-/	-ra	.	-ger	.	.	.	.	8a-/	-ra	.	.	.	.	.	.	8a-/	-ra	di	-ger	.
.	.	.	16A-\LL	głos-	.	.	.	.	.	16A-/LL	głos-	.	zü	.	.	.	.	16a-/LL	głos-	.	.	.	.	.	.	16a-/LL	głos-	Bal-	zu	.
.	.	.	16B-\JJ	.	.	.	.	.	.	16B-/JJ	.	.	.	.	.	.	.	16b-/JJ	.	.	.	.	.	.	.	16b-/JJ	.	-das-	.	.
!!LO:PB:g=original
=21	=21	=21	=21	=21	=21	=21	=21	=21	=21	=21	=21	=21	=21	=21	=21	=21	=21	=21	=21	=21	=21	=21	=21	=21	=21	=21	=21	=21	=21	=21
8.c\	.	Ba-	4c\	-ka-	.	.	.	8.c\	.	4c\	-ka-	.	.	.	8.cc\	Ba-	.	4cc\	-ka-	.	.	.	8.cc\	.	.	4cc\	-ka-	-sa-	.	.
16c\	.	-by-	.	.	.	.	.	16c\	.	.	.	.	.	.	16cc\	-by-	.	.	.	.	.	.	16cc\	.	.	.	.	.	.	.
8c\	.	-lon:	8c\	-mi:	.	.	.	8c\	.	8c\	-mi:	.	.	.	8cc\	-lon:	.	8cc\	-mi:	.	.	.	8cc\	.	.	8cc\	-mi:	-re:	.	.
16.r	.	.	16.r	.	.	.	.	16.r	.	16.r	.	.	.	.	16.r	.	.	16.r	.	.	.	.	16.r	.	.	16.r	.	.	.	.
!	!	!	!	!	!	!	!	!	!	!	!	!	!	!	!	!	!	!	!	!	!	!LO:DY:rj	!	!	!	!	!	!	!	!LO:DY:rj
32Bn\	.	„Ru-	32Bn\	Ru-	.	.	.	32dn\	.	32dn\	Ru-	.	.	.	32a-/	"Ru-	.	32a-/	Ru-	.	.	ff	32ff\	.	.	32ff\	Ru-	Ru-	.	ff
[2B\	.	-i-	[2B\	-i-	.	.	.	[2d\	.	[2d\	-i-	.	.	.	[2a-/	-i-	.	[2a-/	-i-	.	.	.	[<2ff\	.	.	[2ff\	-i-	-i-	.	.
=22	=22	=22	=22	=22	=22	=22	=22	=22	=22	=22	=22	=22	=22	=22	=22	=22	=22	=22	=22	=22	=22	=22	=22	=22	=22	=22	=22	=22	=22	=22
2BnX\]	.	.	2B\]	.	.	.	.	2d\]	.	2d\]	.	.	.	.	2a-/]	.	.	2a-/]	.	.	.	.	2ff\]	.	.	2ff\]	.	.	.	.
!	!	!	!	!	!	!	!	!	!	!LO:ACC:color=red	!	!	!	!	!	!	!	!	!	!	!	!	!	!	!	!	!	!	!	!
8BBn/	.	-nen!	8BBn/	-na!	.	.	.	8Dny/	.	8Dn/	-na!	.	.	.	8A-/	-nen!	.	8A-/	-na!	.	.	.	8f/	.	.	8f/	-na!	-na!	.	.
8r	.	.	8r	.	.	.	.	8r	.	8r	.	.	.	.	8r	.	.	8r	.	.	.	.	8r	.	.	8r	.	.	.	.
4r	.	.	4r	.	.	.	.	4r	.	4r	.	.	.	.	4r	.	.	4r	.	.	.	.	4r	.	.	4r	.	.	.	.
=23	=23	=23	=23	=23	=23	=23	=23	=23	=23	=23	=23	=23	=23	=23	=23	=23	=23	=23	=23	=23	=23	=23	=23	=23	=23	=23	=23	=23	=23	=23
1ryy	.	.	4r	.	.	.	.	1ryy	.	4r	.	.	.	.	1ryy	.	.	4r	.	.	.	.	1ryy	.	.	4r	.	.	.	.
.	.	.	8r	.	.	.	.	.	.	8r	.	.	.	.	.	.	.	8r	.	.	.	.	.	.	.	8r	.	.	.	.
!	!	!	!	!	!	!	!LO:DY:rj	!	!	!	!	!	!	!	!	!	!	!	!	!	!	!LO:DY:a	!	!	!	!	!	!	!	!LO:DY:rj
.	.	.	16AA-/LL	ru-	Ru-	Ru-	pp	.	.	16A-/LL	ru-	.	.	.	.	.	.	16A-/LL	ru-	.	Ru-	pp	.	.	.	16a-/LL	ru-	Ru-	.	pp
.	.	.	16BB-/JJ	.	.	.	.	.	.	16B-/JJ	.	.	.	.	.	.	.	16B-/JJ	.	.	.	.	.	.	.	16b-/JJ	.	.	.	.
.	.	.	2C/	-i-	-i-	-i	.	.	.	2c\	-i-	.	.	.	.	.	.	2c/	-i-	.	-i-	.	.	.	.	2cc\	-i-	-i-	.	.
!!LO:LB:g=original
=24	=24	=24	=24	=24	=24	=24	=24	=24	=24	=24	=24	=24	=24	=24	=24	=24	=24	=24	=24	=24	=24	=24	=24	=24	=24	=24	=24	=24	=24	=24
2ryy	.	.	8D-\	-na	-na!	.	.	2ryy	.	8F/	-na	.	nen!"	.	2ryy	.	.	8c/	-na	.	-nen!"	.	2ryy	.	.	8f/	na	-na!	nen!"	.
.	.	.	16r	.	.	.	.	.	.	16r	.	.	.	.	.	.	.	16r	.	.	.	.	.	.	.	16r	.	.	.	.
.	.	.	16D-\	wdzie-	Nel	.	.	.	.	16A-/	wdzie-	.	Ein	.	.	.	.	16d-/	wdzie-	.	Ein	.	.	.	.	16f/	wdzie-	nel	Ein	<
.	.	.	8.D-\	-ra-	suo	.	.	.	.	8.A-/	-ra-	.	frem-	.	.	.	.	8.c/	-ra-	.	frem-	.	.	.	.	8.a-/	-ra-	suo	frem-	.
.	.	.	16D-\	-jąc	lin-	.	.	.	.	16A-/	-jąc	.	-der	.	.	.	.	16g-X/	-jąc	.	-der	.	.	.	.	16a-/	-jąc	lin-	-der	[
4D-\	.	.	4.D-\	się	-guag-	.	.	4A-/	Gast:	4.A-/	się	.	.	.	4f/	Gast:	.	4.f/	się	.	.	.	4dd-\	.	Gast:	4.dd-\	się	-guag-	.	.
8D-\	.	.	.	.	.	.	.	8A-/	der	.	.	.	.	.	8f/	der	.	.	.	.	.	.	8dd-\	.	der	.	.	.	.	.
8D-\	.	.	8D-\	na	-gio	.	.	8A-/	E	8A-/	na	.	.	.	8f/	E	.	8f/	na	.	.	.	8dd-\	.	E	8dd-\	na	-gio	.	.
=25	=25	=25	=25	=25	=25	=25	=25	=25	=25	=25	=25	=25	=25	=25	=25	=25	=25	=25	=25	=25	=25	=25	=25	=25	=25	=25	=25	=25	=25	=25
1ryy	.	.	8D-\	ścia-	l'e-	.	.	1ryy	.	8A-/	ścia-	.	phen,	.	1ryy	.	.	8e-/	ścia-	.	phen,	.	1r	.	.	8dd-\	ścia-	l'e-	phen,	.
.	.	.	8D-\	-ny	-de-	.	.	.	.	8A-/	-ny	.	er	.	.	.	.	8e-/	-ny	.	er	.	.	.	.	8cc\	-ny	-de-	er	.
.	.	.	8D-\	i	-ra	.	.	.	.	8A-/	i	.	klimmt	.	.	.	.	8e-/	i	.	klimmt	.	.	.	.	8b-\	i	-ra	klimmt	.
.	.	.	8D-\	skle-	fa-	.	.	.	.	8A-/	skle-	.	sie	.	.	.	.	8e-/	skle-	.	die	.	.	.	.	8cc\	skle-	pa-	die	.
.	.	.	4D-\	-pie-	-vel-	.	.	.	.	4A-/	-pie-	.	Mau-	.	.	.	.	4d-/	-pie-	.	Mau-	.	.	.	.	4dd-\	-pie-	-rel-	Mau-	.
.	.	.	16D-\	-nia,	-la	.	.	.	.	16A-/	-nia,	.	-er,	.	.	.	.	16f/	-nia,	.	-er,	.	.	.	.	16a-/	-nia	-la	-er,	.
.	.	.	16r	.	.	.	.	.	.	16r	.	.	.	.	.	.	.	16r	.	.	.	.	.	.	.	16r	.	.	.	.
.	.	.	8D-\	zaj-	In	.	.	.	.	8A-/	zaj-	.	Hin-	.	.	.	.	8d-/	zaj-	.	Hin-	.	.	.	.	8f/	zaj-	In	Hin-	.
!!LO:PB:g=original
=26	=26	=26	=26	=26	=26	=26	=26	=26	=26	=26	=26	=26	=26	=26	=26	=26	=26	=26	=26	=26	=26	=26	=26	=26	=26	=26	=26	=26	=26	=26
2ryy	.	.	8.D-\	-mu-	.	.	.	2ryy	.	8.A-/	-mu-	.	-nan,	.	2ryy	.	.	8.d-/	-mu-	.	-nan,	.	2ryy	.	.	8.f/	-mu-	no-	-nan,	.
.	.	.	16D-\	-je	.	.	.	.	.	16A-/	-je	.	um	.	.	.	.	16d-/	-je	.	um	.	.	.	.	16f/	-je	-me	um	.
.	.	.	8.D-\	dzie-	.	.	.	.	.	8.A-/	dzie-	.	drauf	.	.	.	.	8.c/	dzie-	.	drauf	.	.	.	.	8.a-/	dzie-	di	drauf	.
.	.	.	16D-\	-ło	.	.	.	.	.	16A-/	-ło	.	zu	.	.	.	.	16c/	-ło	.	zu	.	.	.	.	16a-/	-ło	na-	zu	.
4D-\	.	.	4.D-\	lu-	.	.	.	4A-/	schrei-	4.A-/	lu-	.	.	.	4d-/	schrei-	.	4.d-/	lu-	.	.	.	4ff\	.	Schrei-	4.ff\	lu-	-tu-	.	.
8D-\	.	.	.	.	.	.	.	8A-/	-ben,	.	.	.	.	.	8d-/	-ben,	.	.	.	.	.	.	8ff\	.	-ben,	.	.	.	.	.
8D-\	.	.	8D-\	-dzi	.	.	.	8d-\	ver	8d-\	-dzi	.	.	.	16e-/LL	ver	.	16e-/LL	-dzi	.	.	.	16ee-\LL	.	ver	16ee-\LL	-dzi	-ra	.	.
.	.	.	.	.	.	.	.	.	.	.	.	.	.	.	16f/JJ	.	.	16f/JJ	.	.	.	.	16dd-\JJ	.	.	16dd-\JJ	.	.	.	.
=27	=27	=27	=27	=27	=27	=27	=27	=27	=27	=27	=27	=27	=27	=27	=27	=27	=27	=27	=27	=27	=27	=27	=27	=27	=27	=27	=27	=27	=27	=27
1ryy	.	.	8A-\	w i-	.	.	.	1ryy	.	8e-\	w i-	.	kün-	.	1ryy	.	.	8g-X/	w i-	.	kün-	.	1ryy	.	.	8dd-\	w i-	L'o-	kün-	.
.	.	.	8A-\	-mie	.	.	.	.	.	8e-\	-mie	.	-dend	.	.	.	.	8g-/	-mie	.	-dend	.	.	.	.	8cc\	-mie	-pra u-	-dend	.
.	.	.	8A-\	przy-	.	.	.	.	.	8e-\	przy-	.	To-	.	.	.	.	8g-/	przy-	.	To-	.	.	.	.	8b-\	przy-	-man	To-	.
.	.	.	8A-\	-ro-	.	.	.	.	.	8e-\	-ro-	.	-des	.	.	.	.	8g-/	-ro-	.	-des	.	.	.	.	8cc\	-ro-	can-	-des	.
.	.	.	4D-\	-dze-	.	.	.	.	.	4d-\	-dze-	.	schau-	.	.	.	.	4f/	-dze-	.	schau-	.	.	.	.	4dd-\	-dze-	-cel-	schau-	.
.	.	.	16D-\	-nia	.	.	.	.	.	16d-\	-nia	-.	er,	.	.	.	.	16f/	-nia	.	-er,	.	.	.	.	16a-/	-nia	-la	-er,	.
.	.	.	16r	.	.	.	.	.	.	16r	.	.	.	.	.	.	.	16r	.	.	.	.	.	.	.	16r	.	.	.	.
.	.	.	8F\	i	.	.	.	.	.	8F/	i	.	Wie	.	.	.	.	8f/	i	.	Wie	.	.	.	.	8f/	i	E	Wie	.
!!LO:LB:g=original
=28	=28	=28	=28	=28	=28	=28	=28	=28	=28	=28	=28	=28	=28	=28	=28	=28	=28	=28	=28	=28	=28	=28	=28	=28	=28	=28	=28	=28	=28	=28
*	*	*	*^	*	*	*	*	*	*	*^	*	*	*	*	*	*	*	*^	*	*	*	*	*	*	*	*^	*	*	*	*
1ryy	.	.	8.F\	8ryy	pi-	.	einst	.	1ryy	.	8.F/	8ryy	pi-	.	.	.	1ryy	.	.	8.f/	8ryy	pi-	.	einst	.	1ryy	.	.	8.f/	8ryy	pi-	schi	.	.
.	.	.	.	16F\	.	.	.	.	.	.	.	16F/	.	.	.	.	.	.	.	.	16f/@	.	.	.	.	.	.	.	.	16f/@	.	de	.	.
.	.	.	16F\	16ryy	-sze	.	die	.	.	.	16F/	16ryy	-sze	.	.	.	.	.	.	16f/	16ryy	-sze	.	die	.	.	.	.	16f/	16ryy	-sze	come	.	.
.	.	.	8F\	4ryy	Bal-	.	Gei-	.	.	.	8F/	4ryy	Bal-	.	.	.	.	.	.	8f/	4ryy	Bal-	.	Gei-	.	.	.	.	8f/	4ryy	Bal-	al	.	.
.	.	.	8F\	.	-ta-	.	-ster	.	.	.	8F/	.	-ta-	.	.	.	.	.	.	8f/	.	-ta-	.	-ster	.	.	.	.	8f/	.	-ta-	fes-	.	.
.	.	.	4A-\	2ryy	-za-	.	fin-	.	.	.	4A-/	2ryy	-za-	.	.	.	.	.	.	4a-/	2ryy	-za-	.	fin-	.	.	.	.	4a-/	2ryy	-za-	-tin	.	.
.	.	.	8A-\	.	-ra	.	-ger	.	.	.	8A-/	.	-ra	.	.	.	.	.	.	8a-/	.	-ra	.	-ger	.	.	.	.	8a-/	.	-ra	di	.	.
.	.	.	16A-\LL	.	głos-	.	zu	.	.	.	16A-/LL	.	głos-	.	.	.	.	.	.	16a-/LL	.	głos-	.	zu	.	.	.	.	16a-/LL	.	głos-	Bal-	.	.
.	.	.	16B-\JJ	.	.	.	.	.	.	.	16B-/JJ	.	.	.	.	.	.	.	.	16b-/JJ	.	.	.	.	.	.	.	.	16b-/JJ	.	.	-das	.	.
*	*	*	*v	*v	*	*	*	*	*	*	*v	*v	*	*	*	*	*	*	*	*v	*v	*	*	*	*	*	*	*	*v	*v	*	*	*	*
=29	=29	=29	=29	=29	=29	=29	=29	=29	=29	=29	=29	=29	=29	=29	=29	=29	=29	=29	=29	=29	=29	=29	=29	=29	=29	=29	=29	=29	=29	=29
8.c\	.	Ba-	4c\	-ka-	.	.	.	8.c\	.	4c\	-ka-	.	.	.	8.cc\	Ba-	.	4cc\	-ka-	.	.	.	8.cc\	.	.	4cc\	-ka-	sa-	.	.
16c\	.	-by-	.	.	.	.	.	16c\	.	.	.	.	.	.	16cc\	-by-	.	.	.	.	.	.	16cc\	.	.	.	.	.	.	.
8c\	.	-lon:	8c\	-mi	.	.	.	8c\	.	8c\	-mi	.	.	.	8cc\	-lon:	.	8cc\	-mi	.	.	.	8cc\	.	.	8cc\	-mi	-re:	.	.
!	!	!	!	!	!	!	!	!	!	!	!	!	!	!	!	!	!	!	!	!	!	!	!	!	!	!	!	!	!	!LO:DY:a
16.r	.	.	16.r	.	.	.	.	16.r	.	16.r	.	.	.	.	16.r	.	.	16.r	.	.	.	.	16.r	.	.	16.r	.	.	.	f
32Bn\	.	„Ru-	32Bn\	„Ru-	.	.	.	32dn\	.	32dn\	„Ru-	.	.	.	32a-/	„Ru-	.	32a-/	„Ru-	.	.	.	32ff\	.	.	32ff\	„Ru-	„Ru-	.	.
!LO:TX:t=P:problem=niebieski łuk	!	!	!	!	!	!	!	!	!	!	!	!	!	!	!LO:TX:t=P:problem=niebieski łuk	!	!	!	!	!	!	!	!LO:TX:t=P:problem=niebieski łuk	!	!	!	!	!	!	!
2B\	.	-i	[2B\	-i-	.	.	.	2d\	.	[2d\	-i-	.	.	.	2a-/	-i	.	[2a-/	-i-	.	.	.	2ff\	.	.	[2ff\	-i-	-i-	.	.
=30	=30	=30	=30	=30	=30	=30	=30	=30	=30	=30	=30	=30	=30	=30	=30	=30	=30	=30	=30	=30	=30	=30	=30	=30	=30	=30	=30	=30	=30	=30
1ryy	.	.	2B\]	.	.	.	.	1ryy	.	2d\]	.	.	.	.	1ryy	.	.	2a-/]	.	.	.	.	1ryy	.	.	2ff\]	.	.	.	.
.	.	.	8BBn/	-na"	.	nen!"	.	.	.	8Dn/	-na"	.	.	.	.	.	.	8A-/	-na”	.	nen!”	.	.	.	.	8f/	-na”	-na”	.	.
.	.	.	8r	.	.	.	.	.	.	8r	.	.	.	.	.	.	.	8r	.	.	.	.	.	.	.	8r	.	.	.	.
.	.	.	4r	.	.	.	.	.	.	4r	.	.	.	.	.	.	.	4r	.	.	.	.	.	.	.	4r	.	.	.	.
!!LO:PB:g=original
=31	=31	=31	=31	=31	=31	=31	=31	=31	=31	=31	=31	=31	=31	=31	=31	=31	=31	=31	=31	=31	=31	=31	=31	=31	=31	=31	=31	=31	=31	=31
1ryy	.	.	4r	.	.	.	.	1ryy	.	4r	.	.	.	.	1ryy	.	.	4r	.	.	.	.	1ryy	.	.	4r	.	.	.	.
.	.	.	8r	.	.	.	.	.	.	8r	.	.	.	.	.	.	.	8r	.	.	.	.	.	.	.	8r	.	.	.	pp
.	.	.	16AA-/LL	ru-	„Ru-	„Ru-	.	.	.	16A-/LL	ru-	.	„Ru-	.	.	.	.	16A-/LL	ru-	.	„Ru-	.	.	.	.	16a-/LL	ru-	„Ru-	„Ru-	.
.	.	.	16BB-/JJ	.	.	.	.	.	.	16B-/JJ	.	.	.	.	.	.	.	16B-/JJ	.	.	.	.	.	.	.	16b-/JJ	.	.	.	.
.	.	.	2C/	-i-	-i-	-i-	.	.	.	2c\	-i-	.	-i-	.	.	.	.	2c/	-i-	.	-i-	.	.	.	.	2cc\	-i-	-i-	-i-	.
=32	=32	=32	=32	=32	=32	=32	=32	=32	=32	=32	=32	=32	=32	=32	=32	=32	=32	=32	=32	=32	=32	=32	=32	=32	=32	=32	=32	=32	=32	=32
1ryy	.	.	4F\	-na!	-na!"	-nen!"	.	1ryy	.	4F/	-na!	.	-nen!"	.	1ryy	.	.	4A-/	-na!	.	-nen!"	.	1ryy	.	.	4f/	-na!	-na!"	-nen!"	.
.	.	.	4r	.	.	.	.	.	.	4r	.	.	.	.	.	.	.	4r	.	.	.	.	.	.	.	4r	.	.	.	.
.	.	.	2r	.	.	.	.	.	.	2r	.	.	.	.	.	.	.	2r	.	.	.	.	.	.	.	2r	.	.	.	.
=33	=33	=33	=33	=33	=33	=33	=33	=33	=33	=33	=33	=33	=33	=33	=33	=33	=33	=33	=33	=33	=33	=33	=33	=33	=33	=33	=33	=33	=33	=33
!	!	!	!LO:TX:a:t=4.	!	!	!	!	!	!	!LO:TX:a:t=4.	!	!	!	!	!	!	!	!LO:TX:a:t=4.	!	!	!	!	!	!	!	!LO:TX:a:t=4	!	!	!	!
1ryy	.	.	1r	.	.	.	.	1ryy	.	1r	.	.	.	.	1ryy	.	.	1r	.	.	.	.	1ryy	.	.	1r	.	.	.	.
=34	=34	=34	=34	=34	=34	=34	=34	=34	=34	=34	=34	=34	=34	=34	=34	=34	=34	=34	=34	=34	=34	=34	=34	=34	=34	=34	=34	=34	=34	=34
1ryy	.	.	1r	.	.	.	.	1ryy	.	1r	.	.	.	.	1ryy	.	.	1r	.	.	.	.	1ryy	.	.	1r	.	.	.	.
=35	=35	=35	=35	=35	=35	=35	=35	=35	=35	=35	=35	=35	=35	=35	=35	=35	=35	=35	=35	=35	=35	=35	=35	=35	=35	=35	=35	=35	=35	=35
1ryy	.	.	1r	.	.	.	.	1ryy	.	1r	.	.	.	.	1ryy	.	.	1r	.	.	.	.	1ryy	.	.	1r	.	.	.	.
=36	=36	=36	=36	=36	=36	=36	=36	=36	=36	=36	=36	=36	=36	=36	=36	=36	=36	=36	=36	=36	=36	=36	=36	=36	=36	=36	=36	=36	=36	=36
1ryy	.	.	1r	.	.	.	.	1ryy	.	1r	.	.	.	.	1ryy	.	.	1r	.	.	.	.	1ryy	.	.	1r	.	.	.	.
=37	=37	=37	=37	=37	=37	=37	=37	=37	=37	=37	=37	=37	=37	=37	=37	=37	=37	=37	=37	=37	=37	=37	=37	=37	=37	=37	=37	=37	=37	=37
!	!	!	!	!	!	!	!	!	!	!	!	!	!	!	!	!	!	!	!	!	!	!	!	!	!	!LO:TX:a:B:t=E:color=red	!	!	!	!
1ryy	.	.	1r	.	.	.	.	1ryy	.	1r	.	.	.	.	1ryy	.	.	1r	.	.	.	.	1ryy	.	.	2r	.	.	.	.
.	.	.	.	.	.	.	.	.	.	.	.	.	.	.	.	.	.	.	.	.	.	.	.	.	.	4r	.	.	.	.
!	!	!	!	!	!	!	!	!	!	!	!	!	!	!	!	!	!	!	!	!	!	!	!	!	!	!	!	!	!	!LO:DY:rj
.	.	.	.	.	.	.	.	.	.	.	.	.	.	.	.	.	.	.	.	.	.	.	.	.	.	(8.cc\	w śro-	Dell	Dort	p
.	.	.	.	.	.	.	.	.	.	.	.	.	.	.	.	.	.	.	.	.	.	.	.	.	.	16a-/)	-dku	ha-	.	.
!!LO:LB:g=original
=38	=38	=38	=38	=38	=38	=38	=38	=38	=38	=38	=38	=38	=38	=38	=38	=38	=38	=38	=38	=38	=38	=38	=38	=38	=38	=38	=38	=38	=38	=38
!LO:TX:t=P:problem=t. 38-41 ukryte w partyturze	!	!	!LO:TX:t=P:problem=t. 38-41 ukryte w partyturze	!	!	!	!	!LO:TX:t=P:problem=t. 38-41 ukryte w partyturze	!	!LO:TX:t=P:problem=t. 38-41 ukryte w partyturze	!	!	!	!	!	!	!	!	!	!	!	!	!	!	!	!	!	!	!	!
1ryy	.	.	1ryy	.	.	.	.	1ryy	.	1ryy	.	.	.	.	2ryy	.	.	2r	.	.	.	.	8f/	.	steht	4f/	sa-	-rem	.	.
.	.	.	.	.	.	.	.	.	.	.	.	.	.	.	.	.	.	.	.	.	.	.	8f/	.	ein	.	.	.	.	.
.	.	.	.	.	.	.	.	.	.	.	.	.	.	.	.	.	.	.	.	.	.	.	8.f/	.	Mar-	8.f/	-li	la	.	.
.	.	.	.	.	.	.	.	.	.	.	.	.	.	.	.	.	.	.	.	.	.	.	16f/	.	-mor-	16f/	wy-	fon-	.	.
.	.	.	.	.	.	.	.	.	.	.	.	.	.	.	4ryy	.	.	4r	.	.	.	.	4f/	.	-be-	4f/	-cię-	-ta-	.	.
.	.	.	.	.	.	.	.	.	.	.	.	.	.	.	8.ryy	.	.	8.r	.	.	.	.	8.f/	.	-cken,	8.f/	-te	-na	.	.
.	.	.	.	.	.	.	.	.	.	.	.	.	.	.	16f/	draus	.	16f/	z mar-	Ri-	.	.	16f/	.	draus	16f/	z mar-	ri-	.	.
=39	=39	=39	=39	=39	=39	=39	=39	=39	=39	=39	=39	=39	=39	=39	=39	=39	=39	=39	=39	=39	=39	=39	=39	=39	=39	=39	=39	=39	=39	=39
1ryy	.	.	1ryy	.	.	.	.	1ryy	.	1ryy	.	.	.	.	8f/	kla-	.	4f/	-mu-	-suon	.	.	8g/	.	kla-	4g/	-mu-	-suon'	.	.
.	.	.	.	.	.	.	.	.	.	.	.	.	.	.	8f/	-re	.	.	.	.	.	.	8g/	.	-re	.	.	.	.	.
.	.	.	.	.	.	.	.	.	.	.	.	.	.	.	8.f/	Trop-	.	8.f/	-ru	per	.	.	8.f/	.	Trop-	8.f/	-ru	per	.	.
.	.	.	.	.	.	.	.	.	.	.	.	.	.	.	16f/	-fen	.	16f/	na-	le	.	.	16g/	.	-fen	16g/	na-	le	.	.
.	.	.	.	.	.	.	.	.	.	.	.	.	.	.	4f/	stie-	.	4f/	-czy-	sa-	.	.	4a-/	.	stie-	4a-/	-czy-	sa-	.	.
.	.	.	.	.	.	.	.	.	.	.	.	.	.	.	8f/	-ben,	.	8f/	-nie	-le	.	.	8f/	.	-ben,	8f/	-nie	-le	.	.
.	.	.	.	.	.	.	.	.	.	.	.	.	.	.	8a-/	der	.	16a-/	to	dell	.	.	8r	.	.	8r	.	.	.	.
.	.	.	.	.	.	.	.	.	.	.	.	.	.	.	.	.	.	16a-/	fon-	ha-	.	.	.	.	.	.	.	.	.	.
!!LO:LB:g=original
=40	=40	=40	=40	=40	=40	=40	=40	=40	=40	=40	=40	=40	=40	=40	=40	=40	=40	=40	=40	=40	=40	=40	=40	=40	=40	=40	=40	=40	=40	=40
*	*	*	*	*	*	*	*	*	*	*	*	*	*	*	*	*	*	*	*	*	*	*	*	*	*	*^	*	*	*	*
1ryy	.	.	1ryy	.	.	.	.	1ryy	.	1ryy	.	.	.	.	4b-\	Spring-	.	4b-\	-tan-	-rem	.	.	1ryy	.	.	2r	2ryy	.	.	.	.
.	.	.	.	.	.	.	.	.	.	.	.	.	.	.	8b-\	-brum	.	8b-\	-na	la	.	.	.	.	.	.	.	.	.	.	.
.	.	.	.	.	.	.	.	.	.	.	.	.	.	.	16a-/	des	.	16a-/LL	ha-	fon-	.	.	.	.	.	.	.	.	.	.	.
.	.	.	.	.	.	.	.	.	.	.	.	.	.	.	16b-/	Ha-	.	16b-/JJ	.	.	.	.	.	.	.	.	.	.	.	.	.
.	.	.	.	.	.	.	.	.	.	.	.	.	.	.	2cc\	-rems	.	2cc\	-re-	-ta-	.	.	.	.	.	4r	4ryy	.	.	.	.
.	.	.	.	.	.	.	.	.	.	.	.	.	.	.	.	.	.	.	.	.	.	.	.	.	.	8r	8ryy	.	.	.	.
!	!	!	!	!	!	!	!	!	!	!	!	!	!	!	!	!	!	!	!	!	!	!	!	!	!	!	!LO:TX:t=P:stem.color=red:problem	!	!	!	!
.	.	.	.	.	.	.	.	.	.	.	.	.	.	.	.	.	.	.	.	.	.	.	.	.	.	16cc\LL	16cc/	fon-	La-	Der	.
!	!	!	!	!	!	!	!	!	!	!	!	!	!	!	!	!	!	!	!	!	!	!	!	!	!	!	!LO:TX:t=P:stem.color=red:problem	!	!	!	!
.	.	.	.	.	.	.	.	.	.	.	.	.	.	.	.	.	.	.	.	.	.	.	.	.	.	16ddn\JJ	16ddn/	.	-fon	.	.
*	*	*	*	*	*	*	*	*	*	*	*	*	*	*	*	*	*	*	*	*	*	*	*	*	*	*v	*v	*	*	*	*
=41	=41	=41	=41	=41	=41	=41	=41	=41	=41	=41	=41	=41	=41	=41	=41	=41	=41	=41	=41	=41	=41	=41	=41	=41	=41	=41	=41	=41	=41	=41
*	*	*	*	*	*	*	*	*	*	*	*	*	*	*	*	*	*	*^	*	*	*	*	*	*	*	*	*	*	*	*
!	!	!	!	!	!	!	!	!	!	!	!	!	!	!	!	!	!	!	!LO:TX:b:t=P:stem.color=red:problem	!	!	!	!	!	!	!	!	!	!	!	!
1ryy	.	.	1ryy	.	.	.	.	1ryy	.	1ryy	.	.	.	.	8g/L	ist's,	.	8g/L	8g\	.	.	.	.	1ryy	.	.	8ee-\L	-tan-	ta-	Spring-	.
!	!	!	!	!	!	!	!	!	!	!	!	!	!	!	!	!	!	!	!LO:TX:b:t=P:stem.color=red:problem	!	!	!	!	!	!	!	!	!	!	!	!
.	.	.	.	.	.	.	.	.	.	.	.	.	.	.	8f/J	.	.	8f/J	8f\	.	-na,	.	.	.	.	.	8ddn\J	.	na	-brum	.
.	.	.	.	.	.	.	.	.	.	.	.	.	.	.	8e-/	des	.	8e-/	4ryy	-mu	la	.	.	.	.	.	8cc\	-na	dell	des	.
.	.	.	.	.	.	.	.	.	.	.	.	.	.	.	8dn/	Ha-	.	8dn/	.	ha-	fon-	.	.	.	.	.	8bn\	ha-	ha-	Ha-	.
.	.	.	.	.	.	.	.	.	.	.	.	.	.	.	4e-/	-rems	.	4e-/	2ryy	-re-	-ta-	.	.	.	.	.	4cc\	-re-	-rem	-rems	.
.	.	.	.	.	.	.	.	.	.	.	.	.	.	.	8e-/	ist's;	.	8e-/	.	-mu	-na	.	.	.	.	.	8.ee-\	-mu	De-	ist's,	.
.	.	.	.	.	.	.	.	.	.	.	.	.	.	.	8r	.	.	8r	.	.	.	.	.	.	.	.	.	.	.	.	.
.	.	.	.	.	.	.	.	.	.	.	.	.	.	.	.	.	.	.	.	.	.	.	.	.	.	.	16cc\	z mar-	-i	der	.
*	*	*	*	*	*	*	*	*	*	*	*	*	*	*	*	*	*	*v	*v	*	*	*	*	*	*	*	*	*	*	*	*
!!LO:PB:g=original
=42	=42	=42	=42	=42	=42	=42	=42	=42	=42	=42	=42	=42	=42	=42	=42	=42	=42	=42	=42	=42	=42	=42	=42	=42	=42	=42	=42	=42	=42	=42
1ryy	.	.	1r	.	.	.	.	1ryy	.	1r	.	.	.	.	1ryy	.	.	1r	.	.	.	.	8a-/	.	Spring-	4a-/	-mu-	se-	.	.
.	.	.	.	.	.	.	.	.	.	.	.	.	.	.	.	.	.	.	.	.	.	.	8a-/	.	-brum	.	.	.	.	.
.	.	.	.	.	.	.	.	.	.	.	.	.	.	.	.	.	.	.	.	.	.	.	8.a-/	.	des	8.a-/	-ru	-co-	.	.
.	.	.	.	.	.	.	.	.	.	.	.	.	.	.	.	.	.	.	.	.	.	.	16a-/	.	Ha-	16a-/	na-	-li	.	.
.	.	.	.	.	.	.	.	.	.	.	.	.	.	.	.	.	.	.	.	.	.	.	4.a-/	.	-rems;	4.a-/	-czy-	vin-	.	.
.	.	.	.	.	.	.	.	.	.	.	.	.	.	.	.	.	.	.	.	.	.	.	8a-/	.	im	8a-/	-nie	-se	.	.
=43	=43	=43	=43	=43	=43	=43	=43	=43	=43	=43	=43	=43	=43	=43	=43	=43	=43	=43	=43	=43	=43	=43	=43	=43	=43	=43	=43	=43	=43	=43
1ryy	.	.	1r	.	.	.	.	1ryy	.	1r	.	.	.	.	1ryy	.	.	8.f/	do-	l'o-	schon	.	2.ryy	.	.	8.dd-\	do-	l'o-	Grab	.
.	.	.	.	.	.	.	.	.	.	.	.	.	.	.	.	.	.	16f/	-tąd	-pe-	di	.	.	.	.	16dd-\	-tą	-pe-	die	.
.	.	.	.	.	.	.	.	.	.	.	.	.	.	.	.	.	.	8a-/	sto-	-ra	Schö-	.	.	.	.	8cc\	sto-	-ra	Schö-	.
.	.	.	.	.	.	.	.	.	.	.	.	.	.	.	.	.	.	8g/	-i	fa-	-nen	.	.	.	.	8b-\	-i	fa-	-nen	.
.	.	.	.	.	.	.	.	.	.	.	.	.	.	.	.	.	.	4a-/	ca-	-ta-	lie-	.	.	.	.	4cc\	ca-	-ta-	lie-	.
.	.	.	.	.	.	.	.	.	.	.	.	.	.	.	.	.	.	8a-/	-ło	-le,	-gen,	.	8ryy	.	.	8cc\	-ło	-le	-gen,	.
.	.	.	.	.	.	.	.	.	.	.	.	.	.	.	.	.	.	8a-/	per-	e	er	.	16cc\	.	Doch	16cc\LL	per-	es-	.	.
.	.	.	.	.	.	.	.	.	.	.	.	.	.	.	.	.	.	.	.	.	.	.	16ee-\	.	er	16ee-\JJ	.	-sa	.	.
!!LO:LB:g=original
=44	=44	=44	=44	=44	=44	=44	=44	=44	=44	=44	=44	=44	=44	=44	=44	=44	=44	=44	=44	=44	=44	=44	=44	=44	=44	=44	=44	=44	=44	=44
*	*	*	*	*	*	*	*	*	*	*	*	*	*	*	*	*	*	*^	*	*	*	*	*	*	*	*	*	*	*	*
!	!	!	!	!	!	!	!	!	!	!	!	!	!	!	!	!	!	!	!LO:TX:t=P:stem.color=red:problem	!	!	!	!	!	!	!	!	!	!	!	!
1ryy	.	.	1r	.	.	.	.	1ryy	.	1r	.	.	.	.	1ryy	.	.	4g/	8.g/	-ło-	mor-	blieb	.	1ryy	.	.	8.ee-\L	-ło-	mor-	blieb	.
.	.	.	.	.	.	.	.	.	.	.	.	.	.	.	.	.	.	.	16g/@	.	-mo-	.	.	.	.	.	16b-\Jk	.	-mo-	.	.
.	.	.	.	.	.	.	.	.	.	.	.	.	.	.	.	.	.	8g/	4ryy	-we	ra	un-	.	.	.	.	8b-\	-we	-ra	un-	.
.	.	.	.	.	.	.	.	.	.	.	.	.	.	.	.	.	.	8e-/	.	łzy	stil-	-zer-	.	.	.	.	8cc\	łzy	stil-	-zer-	.
.	.	.	.	.	.	.	.	.	.	.	.	.	.	.	.	.	.	4.f/	2ryy	są-	-lan-	-stört	.	.	.	.	4.a-/	są-	-lan-	-stört	.
.	.	.	.	.	.	.	.	.	.	.	.	.	.	.	.	.	.	8f/	.	-cząc	-do	und	.	.	.	.	8a-/	-cząc	-do	und	.
=45	=45	=45	=45	=45	=45	=45	=45	=45	=45	=45	=45	=45	=45	=45	=45	=45	=45	=45	=45	=45	=45	=45	=45	=45	=45	=45	=45	=45	=45	=45	=45
*	*	*	*^	*	*	*	*	*	*	*^	*	*	*	*	*	*	*	*	*	*	*	*	*	*	*	*	*^	*	*	*	*
1ryy	.	.	2r	2ryy	.	.	.	.	1ryy	.	2r	2ryy	.	.	.	.	1ryy	.	.	8.c/	2ryy	wo-	ra-	fliesst	.	1ryy	.	.	8.cc\	2ryy	wo-	la-	fliesst	.
.	.	.	.	.	.	.	.	.	.	.	.	.	.	.	.	.	.	.	.	16c/	.	-ła	-gri-	zu	.	.	.	.	16cc\	.	-ła	-gri-	zu	.
.	.	.	.	.	.	.	.	.	.	.	.	.	.	.	.	.	.	.	.	8.B-/	.	przez	-me	al-	.	.	.	.	8.g/	.	przez	-me	al-	.
.	.	.	.	.	.	.	.	.	.	.	.	.	.	.	.	.	.	.	.	16c/	.	pu-	di	-len	.	.	.	.	16a-/	.	pu-	di	-len	.
.	.	.	4r	4ryy	.	.	.	.	.	.	4r	4ryy	.	.	.	.	.	.	.	4A-/	4ryy	-sty-	per-	Stun-	.	.	.	.	4f/	4ryy	-sty-	per-	Stun-	.
.	.	.	8r	8ryy	.	.	.	.	.	.	8r	8ryy	.	.	.	.	.	.	.	8f/	8ryy	-nie	-le:	-den;	.	.	.	.	8f/	8ryy	-nie	-le:	-den;	.
*	*	*	*	*	*	*	*	*	*	*	*	*	*	*color:red	*	*	*	*	*	*	*	*	*	*	*	*	*	*	*	*	*	*	*	*
!	!	!	!	!LO:TX:t=P:stem.color=red:problem	!	!	!	!	!	!	!	!LO:TX:t=P:stem.color=red:problem	!	!	!	!	!	!	!	!	!LO:TX:b:t=P:stem.color=red:problem	!	!	!	!	!	!	!	!	!LO:TX:t=P:stem.color=red:problem	!	!	!	!LO:DY:a
.	.	.	8c\	16.c/	gdzie	Do-	.	.	.	.	8f\	16.f/	gdzie	do-	Wo	.	.	.	.	8a-/	16.a-\	gdzie	Do-	Wo	.	.	.	.	16.cc\LL	16.cc/	gdzie	Do-	Wo	f
!	!	!	!	!	!	!	!	!	!	!	!	!	!	!	!	!	!	!	!	!	!	!	!	!	!	!	!	!	!	!LO:TX:t=P:stem.color=red:problem	!	!	!	!
.	.	.	.	32c/@	.	-ve	.	.	.	.	.	32f/@	.	-ve	.	.	.	.	.	.	32a-\@	.	-ve	.	.	.	.	.	32ff\JJk	32ff/	.	-ve	.	.
*	*	*	*v	*v	*	*	*	*	*	*	*v	*v	*	*	*	*	*	*	*	*v	*v	*	*	*	*	*	*	*	*v	*v	*	*	*	*
=46	=46	=46	=46	=46	=46	=46	=46	=46	=46	=46	=46	=46	=46	=46	=46	=46	=46	=46	=46	=46	=46	=46	=46	=46	=46	=46	=46	=46	=46	=46
!	!	!	!	!	!	!	!LO:DY:b:color=blue	!	!	!	!	!	!	!LO:DY:b:color=blue	!	!	!	!	!	!	!	!LO:DY:b:color=blue	!	!	!	!LO:TX:a:B:t=O:color=red	!	!	!	!
1ryy	.	.	2.c 2.F\	je-	sie-	.	fp	1ryy	.	2.f\	je-	sie-	seid	fp	1ryy	.	.	2.a-/	je-	Sie-	seid	fp	1ryy	.	.	2.ff\	je-	sie-	seid	.
!	!	!	!	!	!	!	!LO:DY:b:rj:color=blue	!	!	!	!	!	!	!	!	!	!	!	!	!	!	!	!	!	!	!	!	!	!	!
.	.	.	8F\	-steś	-te?	.	p	.	.	8c\	-steś	-te?	ihr	.	.	.	.	8a-/	-steś	-te,	ihr	.	.	.	.	8cc\	-steś	-te,	ihr	.
!	!	!	!	!	!	!	!	!	!	!	!	!	!	!LO:DY:b:rj:color=blue	!	!	!	!	!	!	!	!LO:DY:b:rj:color=blue	!	!	!	!	!	!	!	!LO:DY:rj:color=blue
.	.	.	8F\	gdzie	.	.	.	.	.	16.c\LL	gdzie	.	o	p	.	.	.	16.a-/LL	gdzie	po	o	p	.	.	.	16.cc\LL	gdzie	po-	o	p
.	.	.	.	.	.	.	.	.	.	32d-\JJk	.	.	.	.	.	.	.	32b-/JJk	.	.	.	.	.	.	.	32dd-\JJk	.	.	.	.
!!LO:PB:g=original
=47	=47	=47	=47	=47	=47	=47	=47	=47	=47	=47	=47	=47	=47	=47	=47	=47	=47	=47	=47	=47	=47	=47	=47	=47	=47	=47	=47	=47	=47	=47
*	*	*	*^	*	*	*	*	*	*	*^	*	*	*	*	*	*	*	*^	*	*	*	*	*	*	*	*^	*	*	*	*
1ryy	.	.	8F\	2ryy	je-	.	.	.	1ryy	.	8c\	2ryy	je-	.	Mach,	.	1ryy	.	.	8a-/	2ryy	je-	.	.	.	1ryy	.	.	8cc\	2ryy	je-	-ten-	Macht,	.
.	.	.	8F\	.	-steś	.	.	.	.	.	8c\	.	-steś	.	o	.	.	.	.	8g/	.	-steś	.	.	.	.	.	.	8b-\	.	-steś	-ʒa,	o	.
.	.	.	8F\	.	o	.	.	.	.	.	8c\	.	o	.	Rhum,	.	.	.	.	8f/	.	o	.	.	.	.	.	.	8a-/	.	o	glo-	Rhum,	.
.	.	.	8F\	.	mi-	.	.	.	.	.	8c\	.	mi-	.	o	.	.	.	.	8g/	.	mi-	.	.	.	.	.	.	8b-\	.	mi-	-ria,	o	.
.	.	.	4F\	4ryy	-ło-	.	.	.	.	.	4c\	4ryy	-ło-	.	Lie-	.	.	.	.	4a-/	4ryy	-ło-	.	.	.	.	.	.	4cc\	4ryy	-ło-	amo-	Lie-	.
.	.	.	8F\	8ryy	-ści	.	.	.	.	.	8c\	8ryy	-ści	.	-be,	.	.	.	.	8a-/	8ryy	-ści	.	.	.	.	.	.	8cc\	8ryy	-ści	-re	-be,	.
!	!	!	!	!LO:TX:t=P:stem.color=red:problem	!	!	!	!	!	!	!	!LO:TX:t=P:stem.color=red:problem	!	!	!	!	!	!	!	!	!LO:TX:b:t=P:stem.color=red:problem	!	!	!	!	!	!	!	!	!LO:TX:t=P:stem.color=red:problem	!	!	!	!
.	.	.	8F\	16.F/	gdzie	.	.	.	.	.	8c\	16.c/	gdzie	.	wo	.	.	.	.	16.f/LL	16.f\	gdzie	.	.	.	.	.	.	16.a-\LL	16.a-/	gdzie	Do-	wo	.
!	!	!	!	!	!	!	!	!	!	!	!	!	!	!	!	!	!	!	!	!	!LO:TX:t=P:stem.color=red:problem	!	!	!	!	!	!	!	!	!LO:TX:t=P:stem.color=red:problem	!	!	!	!
.	.	.	.	32F/@	.	.	.	.	.	.	.	32c/@	.	.	.	.	.	.	.	32a-/JJk	32a-\	.	.	.	.	.	.	.	32cc\JJk	32cc/	.	-ve	.	.
*	*	*	*	*	*	*	*	*	*	*	*v	*v	*	*	*	*	*	*	*	*	*	*	*	*	*	*	*	*	*v	*v	*	*	*	*
=48	=48	=48	=48	=48	=48	=48	=48	=48	=48	=48	=48	=48	=48	=48	=48	=48	=48	=48	=48	=48	=48	=48	=48	=48	=48	=48	=48	=48	=48	=48	=48	=48
1ryy	.	.	2.F\	2ryy	je-	.	.	.	1ryy	.	2.c\	je-	.	seid	.	1ryy	.	.	(2.a-/	2ryy	je-	.	.	.	1ryy	.	.	(2.cc\	je-	sie-	seid	.
.	.	.	.	4ryy	.	.	.	.	.	.	.	.	.	.	.	.	.	.	.	4ryy	.	.	.	.	.	.	.	.	.	.	.	.
.	.	.	8F\	8ryy	-steś	.	.	.	.	.	8c\	-steś	.	ihr,	.	.	.	.	8f/)	8ryy	-steś	.	.	.	.	.	.	8a-/)	-steś	-te	ihr,	.
!	!	!	!	!LO:TX:t=P:stem.color=red:problem	!	!	!	!	!	!	!	!	!	!	!	!	!	!	!	!LO:TX:b:t=P:stem.color=red:problem	!	!	!	!	!	!	!	!	!	!	!	!
.	.	.	8F\	16.F/	gdzie	.	.	.	.	.	16.c\LL	gdzie	.	wo	.	.	.	.	8f/	16.f\	gdzie	.	.	.	.	.	.	16a-/LL	gdzie	do-	wo	.
.	.	.	.	.	.	.	.	.	.	.	.	.	.	.	.	.	.	.	.	.	.	.	.	.	.	.	.	16b-/JJ	.	-ve	.	.
.	.	.	.	32F/@	.	.	.	.	.	.	32d-\JJk	.	.	.	.	.	.	.	.	32f\@	.	.	.	.	.	.	.	.	.	.	.	.
*	*	*	*v	*v	*	*	*	*	*	*	*	*	*	*	*	*	*	*	*v	*v	*	*	*	*	*	*	*	*	*	*	*	*
=49	=49	=49	=49	=49	=49	=49	=49	=49	=49	=49	=49	=49	=49	=49	=49	=49	=49	=49	=49	=49	=49	=49	=49	=49	=49	=49	=49	=49	=49	=49
*	*	*	*M2/4	*	*	*	*	*	*	*M2/4	*	*	*	*	*	*	*	*M2/4	*	*	*	*	*M2/4	*	*	*M2/4	*	*	*	*
8F\	.	.	8F\L	je-	.	.	.	8c\	seid	8c\L	je-	.	.	.	8f/	.	.	8f/L	je-	.	.	.	8a-/	.	seid	8a-/L	je-	sie-	.	.
8BB-/	.	.	8BB-\J	.	.	.	.	8B-\	ihr	8B-\J	.	.	.	.	8d-X/	.	.	8d-X/J	.	.	.	.	8g-X/	.	ihr	8g-X/J	.	.	.	.
8C/	.	.	8C/	-steś	.	.	.	8A-/	hin-	8A-/	-steś	.	.	.	8c/	.	.	8c/	-steś	.	.	.	8f/	.	hin-	8f/	-steś	-te	.	.
8C/	.	.	8C/	po-	.	.	.	8Gn/	-ge	8Gn/	po-	.	.	.	8B-/	.	.	8B-/	po-	.	.	.	8en/	.	-ge	8en/	po-	po-	.	.
!!LO:LB:g=original
=50	=50	=50	=50	=50	=50	=50	=50	=50	=50	=50	=50	=50	=50	=50	=50	=50	=50	=50	=50	=50	=50	=50	=50	=50	=50	=50	=50	=50	=50	=50
*	*	*	*M4/4	*	*	*	*	*	*	*M4/4	*	*	*	*	*	*	*	*M4/4	*	*	*	*	*	*	*	*M4/4	*	*	*	*
*	*	*	*met(c)	*	*	*	*	*	*	*met(c)	*	*	*	*	*	*	*	*met(c)	*	*	*	*	*	*	*	*met(c)	*	*	*	*
2ryy	.	.	8.D-\	-tę-	.	.	.	2ryy	.	8.F/	-tę-	.	schwun-	.	2ryy	.	.	8.A-/	-tę-	.	.	.	2ryy	.	.	8.f/	-tę-	-ten-	schwun-	.
.	.	.	16D-\	-go!	.	.	.	.	.	16A-/	-go!	.	-den,	.	.	.	.	16d-/	-go!	.	.	.	.	.	.	16f/	-go!	-ʒa,	-den,	.
.	.	.	8.D-\	chwa-	.	.	.	.	.	8.A-/	chwa-	.	hin-	.	.	.	.	8.c/	chwa-	.	.	.	.	.	.	8.a-/	chwa-	glo-	hin-	.
!	!	!	!	!	!	!	!	!	!	!	!	!	!	!	!	!	!	!LO:ACC:color=red	!	!	!	!	!	!	!	!	!	!	!	!
.	.	.	16D-\	-ło!	.	.	.	.	.	16A-/	-ło!	.	-ge	.	.	.	.	16g-X/	-ło!	.	.	.	.	.	.	16a-/	-ło!	-ria,	-ge	.
*	*	*	*	*	*	*	*	*	*	*	*	*	*	*	*	*	*	*	*	*	*	*	*	*above	*	*	*	*	*	*
4D-\	.	.	4.D-\	wy!	.	.	.	4A-/	schwun-	4.A-/	wy!	.	.	.	4f/	.	.	4.f/	wy!	.	.	.	4dd-\	a-	schwun-	4.dd-\	wy!	.	.	.
8D-\	.	.	.	.	.	.	.	8A-/	-den?	.	.	.	.	.	8f/	.	.	.	.	.	.	.	8dd-\	-mor	-den?	.	.	.	.	.
8D-\	.	.	8D-\	wy	.	.	.	8A-/	Ihr	8A-/	wy	.	.	.	8f/	.	.	8f/	wy	.	.	.	8dd-\	cre	Ihr	8dd-\	wy	.	.	.
=51	=51	=51	=51	=51	=51	=51	=51	=51	=51	=51	=51	=51	=51	=51	=51	=51	=51	=51	=51	=51	=51	=51	=51	=51	=51	=51	=51	=51	=51	=51
*	*	*	*	*	*	*	*	*	*	*	*	*	*	*	*	*	*	*	*	*	*	*	*	*	*	*^	*	*	*	*
!	!	!	!	!	!	!	!	!	!	!	!	!	!	!	!	!	!	!	!	!	!	!	!	!	!	!	!LO:TX:t=P:stem.color=red:problem	!	!	!	!
1r	.	.	8D-\	ma-	.	.	.	1ryy	.	8A-/	ma-	.	soll-	.	1r	.	.	8e-/	ma-	.	.	.	1ryy	.	.	8dd-\	8dd-/L	ma-	den-	soll-	.
!	!	!	!	!	!	!	!	!	!	!	!	!	!	!	!	!	!	!	!	!	!	!	!	!	!	!	!LO:TX:t=P:stem.color=red:problem	!	!	!	!
.	.	.	8D-\	-cie	.	.	.	.	.	8A-/	-cie	.	-tet	.	.	.	.	8e-/	-cie	.	.	.	.	.	.	8cc\	8cc/J	-cie	.	tet	.
.	.	.	8D-\	trwać	.	.	.	.	.	8A-/	trwać	.	e-	.	.	.	.	8e-/	trwać	.	.	.	.	.	.	8b-\	4ryy	trwać	-ge	e-	.
.	.	.	8D-\	na	.	.	.	.	.	8A-/	na	.	-wig	.	.	.	.	8e-/	na	.	.	.	.	.	.	8cc\	.	na	e-	-wig	.
.	.	.	4D-\	wie-	.	.	.	.	.	4A-/	wie-	.	dau-	.	.	.	.	4f/	wie-	.	.	.	.	.	.	4dd-\	2ryy	wie-	-ter-	dau-	.
.	.	.	8D-\	-ki	.	.	.	.	.	8A-/	-ki	.	-ern!	.	.	.	.	8f/	-ki	.	.	.	.	.	.	8a-/	.	-ki	-ne!	-ern!	.
.	.	.	8D-\	na	po-	.	.	.	.	8A-/	na	po-	auf	.	.	.	.	8r	.	.	.	.	.	.	.	8r	.	.	.	.	.
*	*	*	*	*	*	*	*	*	*	*	*	*	*	*	*	*	*	*	*	*	*	*	*	*	*	*v	*v	*	*	*	*
!!LO:PB:g=original
=52	=52	=52	=52	=52	=52	=52	=52	=52	=52	=52	=52	=52	=52	=52	=52	=52	=52	=52	=52	=52	=52	=52	=52	=52	=52	=52	=52	=52	=52	=52
*	*	*	*M2/4	*	*	*	*	*	*	*M2/4	*	*	*	*	*	*	*	*M2/4	*	*	*	*	*	*	*	*M2/4	*	*	*	*
2r	.	.	4D-\	wie-	-ten-	e-	.	2ryy	.	[2A-/	wie-	-ten	e-	.	2ryy	.	.	4r	.	.	.	.	2ryy	.	.	4r	.	.	.	.
.	.	.	16D-\	-ki	-ʒa	-wig,	.	.	.	.	.	.	.	.	.	.	.	8r	.	.	.	.	.	.	.	8r	.	.	.	.
.	.	.	16r	.	.	.	.	.	.	.	.	.	.	.	.	.	.	.	.	.	.	.	.	.	.	.	.	.	.	.
!	!	!	!	!	!	!	!	!	!	!	!	!	!	!	!	!	!	!	!	!	!	!	!	!	!	!LO:ACC:color=grey	!	!	!	!
.	.	.	8D-\	gdzie	po-	O	.	.	.	.	.	.	.	.	.	.	.	8c/	gdzie	.	.	.	.	.	.	8g-X/	gdzie	po-	O	.
=53	=53	=53	=53	=53	=53	=53	=53	=53	=53	=53	=53	=53	=53	=53	=53	=53	=53	=53	=53	=53	=53	=53	=53	=53	=53	=53	=53	=53	=53	=53
*	*	*	*M4/4	*	*	*	*	*	*	*M4/4	*	*	*	*	*	*	*	*M4/4	*	*	*	*	*	*	*	*M4/4	*	*	*	*
*	*	*	*met(c)	*	*	*	*	*	*	*met(c)	*	*	*	*	*	*	*	*met(c)	*	*	*	*	*	*	*	*met(c)	*	*	*	*
2ryy	.	.	8.D-\	je-	-ten-	Rhum,	.	2ryy	.	8.A-/]	.	.	-wig,	.	2ryy	.	.	8.d-/	je-	.	.	.	2ryy	.	.	8.f/	je-	-ten-	Ruhm,	.
.	.	.	16D-\	-steś	-ʒa,	o	.	.	.	16A-/	-ki	.	O	.	.	.	.	16d-/	-steś	.	.	.	.	.	.	16f/	-steś	-ʒa,	o	.
.	.	.	8.D-\	o	glo-	Macht,	.	.	.	8.A-/	o	.	Macht,	.	.	.	.	8.c/	o	.	.	.	.	.	.	8.a-/	o	glo-	Macht,	.
.	.	.	16D-\	mi-	-ria	o	.	.	.	16A-/	mi-	.	o	.	.	.	.	16c/	mi-	.	.	.	.	.	.	16a-/	mi-	-ria	o	.
*	*above	*	*	*	*	*	*	*	*	*	*	*	*	*	*	*	*	*	*	*	*	*	*	*	*	*	*	*	*	*
*	*color:red	*	*	*	*	*	*	*	*	*	*	*	*	*	*	*	*	*	*	*	*	*	*	*	*	*	*	*	*	*
4D-\	a-	Lie-	4.D-\	-ło-	.	.	.	4A-/	Lie-	4.A-/	-ło-	.	.	.	4d-/	.	.	4.d-/	-ło-	.	.	.	4ff\	a-	Lie-	4.ff\	-ło-	.	.	.
8D-\	-mor,	-be!	.	.	.	.	.	8A-/	-be!	.	.	.	.	.	8d-/	.	.	.	.	.	.	.	8ff\	-mor,	-be!	.	.	.	.	.
8D-\	cre	wo	8D-\	-ści	.	.	.	8d-\	wo	8d-\	-ści	.	.	.	16e-/LL	.	.	16e-/LL	-ści	.	.	.	16ee-\LL	cre	wo	16ee-\LL	-ści	.	.	.
.	.	.	.	.	.	.	.	.	.	.	.	.	.	.	16f/JJ	.	.	16f/JJ	.	.	.	.	16dd-\JJ	.	.	16dd-\JJ	.	.	.	.
!!LO:LB:g=original
=54	=54	=54	=54	=54	=54	=54	=54	=54	=54	=54	=54	=54	=54	=54	=54	=54	=54	=54	=54	=54	=54	=54	=54	=54	=54	=54	=54	=54	=54	=54
1ryy	.	.	8A-\	gdzie	den-	.	.	1ryy	.	8e-\	gdzie	.	seid	.	1ryy	.	.	8g/	gdzie	.	.	.	1ryy	.	.	8dd-\	gdzie	den-	seid	.
.	.	.	8A-\	po-	-ʒe	.	.	.	.	8e-\	po-	.	ihr	.	.	.	.	8g/	po-	.	.	.	.	.	.	8cc\	po-	-ʒe	ihr	.
.	.	.	8A-\	-tę-	im-	.	.	.	.	8e-\	-tę-	.	hin-	.	.	.	.	8g/	-tę-	.	.	.	.	.	.	8b-\	-tę-	in-	hin-	.
.	.	.	8A-\	-go	-mor-	.	.	.	.	8e-\	-go	.	-ge	.	.	.	.	8g/	-go	.	.	.	.	.	.	8cc\	-go	-mor-	-ge-	.
.	.	.	4D-\	chwa-	-ta-	.	.	.	.	4d-\	chwa-	.	schwun-	.	.	.	.	4f/	chwa-	.	.	.	.	.	.	4dd-\	chwa-	-ta-	-schwun-	.
.	.	.	16D-\	-ło!	-li!	.	.	.	.	16d-\	-ło!	.	-den?	.	.	.	.	16f/	-ło!	.	.	.	.	.	.	16a-/	-ło!	-te!	-den?	.
.	.	.	16r	.	.	.	.	.	.	16r	.	.	.	.	.	.	.	16r	.	.	.	.	.	.	.	16r	.	.	.	.
.	.	.	8F\	wy	E	.	.	.	.	8F/	wy	.	Ihr	.	.	.	.	8f/	wy	.	.	.	.	.	.	8f/	wy	e	Ihr	.
=55	=55	=55	=55	=55	=55	=55	=55	=55	=55	=55	=55	=55	=55	=55	=55	=55	=55	=55	=55	=55	=55	=55	=55	=55	=55	=55	=55	=55	=55	=55
!	!	!	!	!	!	!	!	!	!	!	!	!	!	!	!	!	!	!	!	!	!	!	!	!	!	!LO:TX:a:B:t=U:color=red	!	!	!	!
2ryy	.	.	8.F\	ma-	sem-	.	.	2ryy	.	8.F/	ma-	.	soll-	.	2ryy	.	.	8.f/	ma-	.	.	.	2ryy	.	.	8.f/	ma-	sem-	soll-	.
.	.	.	16F\	-cie	-pre	.	.	.	.	16F/	-cie	.	-tet	.	.	.	.	16f/	-cie	.	.	.	.	.	.	16f/	-cie	-pre	-tet	.
.	.	.	8F\	trwać	scor-	.	.	.	.	8F/	trwać	.	e-	.	.	.	.	8f/	trwać	.	.	.	.	.	.	8f/	trwać	scor-	e-	.
.	.	.	8F\	na	-re	.	.	.	.	8F/	na	.	-wig	.	.	.	.	8f/	na	.	.	.	.	.	.	8f/	na	-re	-wig	.
8A-\	.	.	4A-\	wie-	l'ac-	.	.	8A-/	dau-	4A-/	wie-	.	.	.	8a-/	.	.	4a-/	wie-	.	.	.	8a-/	l'-	dau-	4a-/	wie-	.	.	.
8A-\	.	.	.	.	.	.	.	8A-/	-ern,	.	.	.	.	.	8a-/	.	.	.	.	.	.	.	8a-/	-ac-	-ern,	.	.	.	.	.
8A-\	.	.	8A-\	-ki,	-qua	.	.	8A-/	mag	8A-/	-ki,	.	.	.	8a-/	.	.	8a-/	-ki,	.	.	.	8a-/	-qua	mag	8a-/	-ki,	.	.	.
16A-\	.	.	16A-\	źró-	.	.	.	16A-/	auch	16A-/	źró-	.	.	.	16a-/	.	.	16a-/	źró-	.	.	.	16a-/	chia-	auch	16a-/	źró-	.	.	.
16B-\	.	.	16B-\	-dło	.	.	.	16B-/	ein	16B-/	-dło	.	.	.	16b-/	.	.	16b-/	-dło	.	.	.	16b-/	-ra	ein	16b-/	-dło	.	.	.
!!LO:PB:g=original
=56	=56	=56	=56	=56	=56	=56	=56	=56	=56	=56	=56	=56	=56	=56	=56	=56	=56	=56	=56	=56	=56	=56	=56	=56	=56	=56	=56	=56	=56	=56
1ryy	.	.	8c\	szyb-	.	.	.	1ryy	.	8c\	szyb-	.	Born	.	1ryy	.	.	8cc\	szyb-	.	.	.	1ryy	.	.	8cc\	szyb-	e	Born	.
.	.	.	8c\	-ko	.	.	.	.	.	8c\	-ko	.	ver-	.	.	.	.	8cc\	-ko	.	.	.	.	.	.	8cc\	-ko	tran-	ver-	.
.	.	.	8c\	pły-	.	.	.	.	.	8c\	pły-	.	-sie-	.	.	.	.	8cc\	pły-	.	.	.	.	.	.	8cc\	pły-	-quil-	-si-	.
.	.	.	16c\	-nie	.	.	.	.	.	16c\	-nie	.	-gen;	.	.	.	.	16cc\	-nie	.	.	.	.	.	.	16cc\	-nie	-la:	-gen;	.
.	.	.	32r	.	.	.	.	.	.	32r	.	.	.	.	.	.	.	32r	.	.	.	.	.	.	.	32r	.	.	.	.
!	!	!	!	!	!	!	!	!	!	!	!	!	!	!	!	!	!	!	!	!	!	!	!	!	!	!	!	!	!	!LO:DY:rj
.	.	.	32Bn\	o	ver-	.	.	.	.	32dn\	o	.	O	.	.	.	.	32a-/	o	.	.	.	.	.	.	32ff\	o	Vir-	O	f
.	.	.	2B\	hań-	-go-	.	.	.	.	2d\	hań-	.	Schan-	.	.	.	.	2a-/	hań-	.	.	.	.	.	.	2ff\	hań-	-gog-	Schmach.	.
=57	=57	=57	=57	=57	=57	=57	=57	=57	=57	=57	=57	=57	=57	=57	=57	=57	=57	=57	=57	=57	=57	=57	=57	=57	=57	=57	=57	=57	=57	=57
1ryy	.	.	8BBn/	-bo!	-gna!	.	.	1ryy	.	8Dn/	-bo!	.	-de!	.	1ryy	.	.	4f/	-bo!	.	.	.	1ryy	.	.	4f/	-bo!	-na!	ihr	.
.	.	.	8r	.	.	.	.	.	.	8r	.	.	.	.	.	.	.	.	.	.	.	.	.	.	.	.	.	.	.	.
.	.	.	4r	.	.	.	.	.	.	4r	.	.	.	.	.	.	.	8r	.	.	.	.	.	.	.	8r	.	.	.	.
!	!	!	!	!	!	!	!	!	!	!	!	!	!	!	!	!	!	!	!	!	!	!	!	!	!	!	!	!	!	!LO:DY:rj
.	.	.	.	.	.	.	.	.	.	.	.	.	.	.	.	.	.	16.f/	wyś-	.	.	.	.	.	.	16.a-/	wyś-	Voi	seid	p
.	.	.	.	.	.	.	.	.	.	.	.	.	.	.	.	.	.	32g/	-cie	.	.	.	.	.	.	32b-/	-cie	pos-	ver-	.
.	.	.	2r	.	.	.	.	.	.	2r	.	.	.	.	.	.	.	8.f/L	prze-	.	.	.	.	.	.	8.a-/L	prze-	-sas	-gan-	.
.	.	.	.	.	.	.	.	.	.	.	.	.	.	.	.	.	.	16en/Jk	.	.	.	.	.	.	.	16g/Jk	.	.	.	.
.	.	.	.	.	.	.	.	.	.	.	.	.	.	.	.	.	.	8f/	-szły,	.	.	.	.	.	.	8a-/	-szły,	te	-gen,	.
.	.	.	.	.	.	.	.	.	.	.	.	.	.	.	.	.	.	16r	.	.	.	.	.	.	.	16r	.	.	.	.
.	.	.	.	.	.	.	.	.	.	.	.	.	.	.	.	.	.	16e/	a	.	.	.	.	.	.	16g/	a	la	der	.
!!LO:LB:g=original
=58	=58	=58	=58	=58	=58	=58	=58	=58	=58	=58	=58	=58	=58	=58	=58	=58	=58	=58	=58	=58	=58	=58	=58	=58	=58	=58	=58	=58	=58	=58
4ryy	.	.	4r	.	.	.	.	4ryy	.	4r	.	.	.	.	4ryy	.	.	8f/	źró-	.	.	.	4ryy	.	.	8a-/	źró-	fon-	Brun-	.
.	.	.	.	.	.	.	.	.	.	.	.	.	.	.	.	.	.	8f/	-dło	.	.	.	.	.	.	8a-/	-dło	-te	-nen	.
!	!	!	!	!	!	!	!	!	!	!	!	!	!	!	!	!	!	!	!	!	!	!	!	!	!	!	!	!	!	!LO:DY:a
8ryy	.	.	8r	.	.	.	.	8ryy	.	8r	.	.	.	.	8ryy	.	.	8r	.	.	.	.	8ryy	.	.	8r	.	.	.	pp
16AA-/	zam-	.	16AA-/LL	zo-	.	.	.	16A-/	ist	16A-/LL	zo-	.	.	.	16A-/	.	.	16A-/LL	zo-	.	.	.	16a-\	.	ist	16a-/LL	zo-	ʒam-	.	.
16BB-/	.	.	16BB-/JJ	.	.	.	.	16B-/	ge-	16B-/JJ	.	.	.	.	16B-/	.	.	16B-/JJ	.	.	.	.	16b-\	.	ge-	16b-/JJ	.	.	.	.
2C/	-pil	.	2C/	-sta-	.	.	.	2c\	-blie	2c\	-sta-	.	.	.	2c/	.	.	2c/	-sta-	.	.	.	2cc\	.	-blie	2cc\	-sta-	-pil-	.	.
*	*	*	*	*	*	*	*	*X8ba	*	*	*	*	*	*	*	*	*	*	*	*	*	*	*	*	*	*	*	*	*	*
=59	=59	=59	=59	=59	=59	=59	=59	=59	=59	=59	=59	=59	=59	=59	=59	=59	=59	=59	=59	=59	=59	=59	=59	=59	=59	=59	=59	=59	=59	=59
1ryy	.	.	4F\	-ło.	la!	.	.	1ryy	.	4F/	-ło.	.	ben!	.	1ryy	.	.	4f/	-ło	.	.	.	1ryy	.	.	4f/	-ło.	-la!	ben!	.
*	*	*	*	*	*	*	*	*	*	*X8ba	*	*	*	*	*	*	*	*	*	*	*	*	*	*	*	*	*	*	*	*
.	.	.	4r	.	.	.	.	.	.	4r	.	.	.	.	.	.	.	4r	.	.	.	.	.	.	.	4r	.	.	.	.
.	.	.	2r	.	.	.	.	.	.	2r	.	.	.	.	.	.	.	2r	.	.	.	.	.	.	.	2r	.	.	.	.
=60	=60	=60	=60	=60	=60	=60	=60	=60	=60	=60	=60	=60	=60	=60	=60	=60	=60	=60	=60	=60	=60	=60	=60	=60	=60	=60	=60	=60	=60	=60
!	!	!	!LO:TX:a:t=5.	!	!	!	!	!	!	!LO:TX:a:t=5.	!	!	!	!	!	!	!	!LO:TX:a:t=5	!	!	!	!	!	!	!	!LO:TX:a:t=5.	!	!	!	!
1ryy	.	.	1r	.	.	.	.	1ryy	.	1r	.	.	.	.	1ryy	.	.	1r	.	.	.	.	1ryy	.	.	1r	.	.	.	.
=61	=61	=61	=61	=61	=61	=61	=61	=61	=61	=61	=61	=61	=61	=61	=61	=61	=61	=61	=61	=61	=61	=61	=61	=61	=61	=61	=61	=61	=61	=61
1ryy	.	.	1r	.	.	.	.	1ryy	.	1r	.	.	.	.	1ryy	.	.	1r	.	.	.	.	1ryy	.	.	1r	.	.	.	.
=62	=62	=62	=62	=62	=62	=62	=62	=62	=62	=62	=62	=62	=62	=62	=62	=62	=62	=62	=62	=62	=62	=62	=62	=62	=62	=62	=62	=62	=62	=62
1ryy	.	.	1r	.	.	.	.	1ryy	.	1r	.	.	.	.	1ryy	.	.	1r	.	.	.	.	1ryy	.	.	1r	.	.	.	.
=63	=63	=63	=63	=63	=63	=63	=63	=63	=63	=63	=63	=63	=63	=63	=63	=63	=63	=63	=63	=63	=63	=63	=63	=63	=63	=63	=63	=63	=63	=63
1ryy	.	.	1r	.	.	.	.	1ryy	.	1r	.	.	.	.	1ryy	.	.	1r	.	.	.	.	1ryy	.	.	1r	.	.	.	.
=64	=64	=64	=64	=64	=64	=64	=64	=64	=64	=64	=64	=64	=64	=64	=64	=64	=64	=64	=64	=64	=64	=64	=64	=64	=64	=64	=64	=64	=64	=64
1ryy	.	.	1r	.	.	.	.	1ryy	.	1r	.	.	.	.	1ryy	.	.	1r	.	.	.	.	1ryy	.	.	1r	.	.	.	.
=65	=65	=65	=65	=65	=65	=65	=65	=65	=65	=65	=65	=65	=65	=65	=65	=65	=65	=65	=65	=65	=65	=65	=65	=65	=65	=65	=65	=65	=65	=65
1ryy	.	.	1r;	.	.	.	.	1ryy	.	1r;	.	.	.	.	1ryy	.	.	1r;	.	.	.	.	1ryy	.	.	1r;	.	.	.	.
==	==	==	==	==	==	==	==	==	==	==	==	==	==	==	==	==	==	==	==	==	==	==	==	==	==	==	==	==	==	==
*-	*-	*-	*-	*-	*-	*-	*-	*-	*-	*-	*-	*-	*-	*-	*-	*-	*-	*-	*-	*-	*-	*-	*-	*-	*-	*-	*-	*-	*-	*-
!!!system-decoration: (s1,s2,s3,s4,s5,s6,s7,s8)
!!!RDF**kern: > = above
!!!RDF**kern: < = below
!!!RDF**kern: @ = market note, color=red
!!!ENC: Marcin Jachim
!!!END: 2021-08-19
!!!ENC: Marta Lawrence
!!!END: 2021-10-04
